pics/luts/ademolastudios Light SKin 2..CUBE
#Created by: Adobe Photoshop Export Color Lookup Plugin
#Copyright: (C) Copyright 2020 Ncourage Photography
TITLE "22"
#LUT size
LUT_3D_SIZE 32
#data domain
DOMAIN_MIN 0.0 0.0 0.0
DOMAIN_MAX 1.0 1.0 1.0
#LUT data points
0.000000 0.000000 0.000000
0.016113 0.002869 0.000854
0.054535 0.009094 0.002808
0.088104 0.014679 0.004486
0.118591 0.019714 0.005920
0.153015 0.024963 0.007385
0.188416 0.030151 0.008789
0.223602 0.035034 0.009949
0.258484 0.040131 0.011383
0.293335 0.045288 0.012939
0.327972 0.050415 0.014465
0.362396 0.055481 0.015991
0.396271 0.060425 0.017517
0.429535 0.065308 0.018982
0.462891 0.070282 0.020477
0.496216 0.075348 0.021973
0.529694 0.081085 0.023468
0.562225 0.086670 0.024963
0.593964 0.092285 0.026367
0.624969 0.097748 0.027771
0.655304 0.103271 0.028992
0.684967 0.108765 0.030334
0.714172 0.114288 0.031677
0.742920 0.119751 0.033020
0.771149 0.125183 0.034424
0.799072 0.130615 0.035858
0.826721 0.136017 0.037262
0.854034 0.141479 0.038666
0.881134 0.147186 0.040039
0.908112 0.152649 0.041504
0.934875 0.158173 0.042908
0.961548 0.163971 0.044342
0.000549 0.013916 0.000549
0.018494 0.012909 0.000824
0.055817 0.019287 0.002716
0.088867 0.024841 0.004364
0.119110 0.029846 0.005768
0.152466 0.034760 0.007202
0.186340 0.039703 0.008606
0.220123 0.044403 0.009705
0.253540 0.048981 0.011017
0.287933 0.053589 0.012573
0.322571 0.058289 0.014099
0.357025 0.062927 0.015656
0.391022 0.067383 0.017151
0.424438 0.071777 0.018646
0.457947 0.076630 0.020172
0.491394 0.082214 0.021637
0.524841 0.088470 0.023163
0.557465 0.094818 0.024597
0.589325 0.101227 0.026001
0.620483 0.107605 0.027405
0.651031 0.113983 0.028625
0.681000 0.120239 0.029968
0.710480 0.126587 0.031311
0.739502 0.132935 0.032654
0.768066 0.139465 0.033997
0.796356 0.146088 0.035492
0.824371 0.152679 0.036835
0.852081 0.159302 0.038269
0.879639 0.165833 0.039673
0.907043 0.172394 0.041077
0.934326 0.179108 0.042511
0.961517 0.185760 0.043915
0.002014 0.050568 0.002014
0.018951 0.047211 0.001892
0.054565 0.043915 0.002289
0.087372 0.047546 0.003967
0.117188 0.050781 0.005341
0.148499 0.054169 0.006775
0.180298 0.057526 0.008087
0.211975 0.060883 0.009277
0.243622 0.064117 0.010376
0.278168 0.067780 0.011902
0.312897 0.071625 0.013489
0.347992 0.075653 0.015045
0.382599 0.079407 0.016602
0.416504 0.083405 0.018127
0.450470 0.088135 0.019684
0.484253 0.093903 0.021149
0.517822 0.101288 0.022644
0.550812 0.108795 0.024078
0.583099 0.116302 0.025513
0.614594 0.123566 0.026886
0.645538 0.130737 0.028198
0.675964 0.137878 0.029480
0.705933 0.144806 0.030823
0.735382 0.151642 0.032196
0.764496 0.158508 0.033539
0.793243 0.165100 0.035004
0.821808 0.171783 0.036377
0.850098 0.178467 0.037872
0.878113 0.185028 0.039276
0.906006 0.191681 0.040649
0.933838 0.198395 0.042145
0.961517 0.204834 0.043610
0.003418 0.087799 0.003418
0.020142 0.083008 0.003204
0.052643 0.075439 0.002930
0.085724 0.071503 0.003510
0.114532 0.074432 0.004883
0.143738 0.077362 0.006226
0.173187 0.080292 0.007446
0.202576 0.083160 0.008636
0.232422 0.086090 0.009613
0.266632 0.089539 0.011047
0.301270 0.093079 0.012634
0.336945 0.096771 0.014252
0.372101 0.100586 0.015839
0.406616 0.104187 0.017426
0.441162 0.109192 0.018921
0.475494 0.115051 0.020447
0.509552 0.121948 0.021973
0.543152 0.129242 0.023438
0.576050 0.136414 0.024902
0.608124 0.143433 0.026306
0.639679 0.150299 0.027710
0.670624 0.157104 0.028961
0.701141 0.163940 0.030304
0.731201 0.170532 0.031677
0.760864 0.177063 0.033051
0.790192 0.183441 0.034485
0.819275 0.189972 0.035950
0.848022 0.196381 0.037415
0.876587 0.202911 0.038849
0.904999 0.209167 0.040283
0.933350 0.215668 0.041809
0.961487 0.222076 0.043274
0.004700 0.124725 0.004700
0.021149 0.118622 0.004486
0.051697 0.108826 0.004150
0.083435 0.099457 0.003815
0.112091 0.095520 0.004456
0.139160 0.098083 0.005707
0.166351 0.100677 0.006866
0.193542 0.103210 0.007965
0.221924 0.105896 0.009094
0.255859 0.109131 0.010254
0.290100 0.112457 0.011841
0.326324 0.116119 0.013519
0.362061 0.119781 0.015137
0.397156 0.123230 0.016693
0.432281 0.128082 0.018280
0.467194 0.133789 0.019806
0.501709 0.140167 0.021332
0.535828 0.147247 0.022827
0.569275 0.154022 0.024323
0.601959 0.160919 0.025757
0.634064 0.167542 0.027222
0.665619 0.174225 0.028473
0.696655 0.180725 0.029877
0.727234 0.187073 0.031250
0.757385 0.193359 0.032623
0.787262 0.199707 0.034027
0.816772 0.205963 0.035583
0.846100 0.212128 0.037018
0.875183 0.218506 0.038513
0.904083 0.224579 0.040009
0.932831 0.230774 0.041504
0.961487 0.237122 0.043030
0.005829 0.161285 0.005829
0.021881 0.153778 0.005585
0.050720 0.141785 0.005219
0.082336 0.130188 0.004852
0.109253 0.119629 0.004517
0.134888 0.116150 0.005219
0.159973 0.118408 0.006348
0.185150 0.120667 0.007385
0.212280 0.123077 0.008423
0.245972 0.126160 0.009613
0.279663 0.129272 0.011108
0.316345 0.132813 0.012848
0.352631 0.136261 0.014465
0.388184 0.139771 0.016052
0.423859 0.144501 0.017639
0.459229 0.149963 0.019196
0.494202 0.155945 0.020752
0.528931 0.162811 0.022308
0.562866 0.169495 0.023804
0.596100 0.175995 0.025269
0.628693 0.182556 0.026733
0.660767 0.188934 0.028107
0.692261 0.195160 0.029419
0.723328 0.201355 0.030823
0.754120 0.207642 0.032227
0.784393 0.213745 0.033661
0.814514 0.219849 0.035278
0.844238 0.226013 0.036682
0.873840 0.232086 0.038239
0.903137 0.238098 0.039734
0.932404 0.244202 0.041260
0.961456 0.250122 0.042786
0.006866 0.197418 0.006866
0.022491 0.188751 0.006622
0.049744 0.174988 0.006256
0.081329 0.161469 0.005859
0.108185 0.148865 0.005463
0.130585 0.137054 0.005066
0.153931 0.133789 0.005829
0.177155 0.135956 0.006836
0.203247 0.138397 0.007904
0.236725 0.141479 0.009155
0.269897 0.144562 0.010437
0.306610 0.148102 0.012146
0.343323 0.151733 0.013855
0.379395 0.155243 0.015442
0.415588 0.160004 0.017059
0.451355 0.165344 0.018646
0.486786 0.171021 0.020233
0.521973 0.177704 0.021759
0.556458 0.184204 0.023285
0.590179 0.190643 0.024811
0.623291 0.197113 0.026276
0.655914 0.203278 0.027740
0.687988 0.209534 0.029022
0.719513 0.215576 0.030426
0.750732 0.221588 0.031860
0.781616 0.227753 0.033325
0.812134 0.233734 0.034882
0.842377 0.239655 0.036346
0.872375 0.245697 0.037964
0.902222 0.251556 0.039490
0.931946 0.257599 0.041016
0.961456 0.263428 0.042542
0.007843 0.233032 0.007843
0.022949 0.224426 0.007599
0.048767 0.211029 0.007233
0.080200 0.197174 0.006866
0.107117 0.183807 0.006470
0.129578 0.171753 0.006134
0.148254 0.160645 0.005829
0.168091 0.156189 0.006134
0.193207 0.158478 0.007172
0.226227 0.161499 0.008484
0.259064 0.164459 0.009644
0.295471 0.167847 0.011292
0.332825 0.171387 0.013062
0.369415 0.174957 0.014709
0.406219 0.179504 0.016357
0.442596 0.184662 0.017975
0.478455 0.190002 0.019562
0.514313 0.196503 0.021179
0.549316 0.202820 0.022705
0.583679 0.208984 0.024231
0.617401 0.215149 0.025757
0.650482 0.221252 0.027222
0.683105 0.227264 0.028534
0.715332 0.233093 0.029968
0.747070 0.239136 0.031433
0.778442 0.245087 0.032898
0.809540 0.251099 0.034424
0.840240 0.257233 0.035980
0.870850 0.263306 0.037567
0.901184 0.269287 0.039124
0.931366 0.275177 0.040619
0.961456 0.281281 0.042236
0.008820 0.268066 0.008820
0.023346 0.259644 0.008575
0.047852 0.246979 0.008209
0.079163 0.233795 0.007843
0.106140 0.221008 0.007507
0.128662 0.208771 0.007172
0.147400 0.196960 0.006866
0.162689 0.185669 0.006531
0.183502 0.179291 0.006470
0.215973 0.182068 0.007751
0.248383 0.184875 0.009003
0.284302 0.188110 0.010498
0.322174 0.191559 0.012299
0.359283 0.194977 0.013977
0.396637 0.199646 0.015625
0.433594 0.204895 0.017273
0.469940 0.210052 0.018890
0.506348 0.216583 0.020508
0.541992 0.222992 0.022064
0.576874 0.229187 0.023651
0.611176 0.235535 0.025146
0.644836 0.241638 0.026642
0.678040 0.247742 0.028107
0.710846 0.253784 0.029480
0.743103 0.259735 0.030945
0.775146 0.265686 0.032410
0.806763 0.271576 0.033936
0.838074 0.277405 0.035583
0.869263 0.283203 0.037109
0.900116 0.289215 0.038666
0.930847 0.295135 0.040222
0.961426 0.300934 0.041870
0.009827 0.302460 0.009827
0.023895 0.294220 0.009521
0.047028 0.282288 0.009186
0.078125 0.269714 0.008881
0.105164 0.257568 0.008545
0.127716 0.245911 0.008179
0.146576 0.234680 0.007874
0.161987 0.223755 0.007599
0.178711 0.212860 0.007294
0.206238 0.205963 0.007111
0.237457 0.208160 0.008240
0.272614 0.211182 0.009583
0.311035 0.214600 0.011444
0.348785 0.217926 0.013184
0.386688 0.222534 0.014862
0.424286 0.227631 0.016541
0.461212 0.232635 0.018188
0.498138 0.238831 0.019806
0.534393 0.245056 0.021423
0.569977 0.251190 0.023010
0.604767 0.257233 0.024536
0.639099 0.263214 0.026093
0.672974 0.269165 0.027618
0.706268 0.275055 0.028961
0.739166 0.280792 0.030457
0.771759 0.286713 0.031952
0.803925 0.292450 0.033478
0.835907 0.298187 0.035126
0.867584 0.303802 0.036621
0.899048 0.309540 0.038300
0.930298 0.315247 0.039886
0.961426 0.321045 0.041534
0.010986 0.336243 0.010986
0.024353 0.328247 0.010742
0.046509 0.316956 0.010345
0.077179 0.305023 0.009918
0.104218 0.293457 0.009521
0.126923 0.282379 0.009186
0.145721 0.271606 0.008911
0.161133 0.261353 0.008636
0.177979 0.250916 0.008331
0.201782 0.239471 0.007996
0.228302 0.233154 0.007843
0.260803 0.234863 0.008820
0.299805 0.238159 0.010529
0.338074 0.241455 0.012390
0.376709 0.245941 0.014130
0.414886 0.250854 0.015808
0.452332 0.255829 0.017456
0.489807 0.261597 0.019104
0.526642 0.267670 0.020752
0.562836 0.273682 0.022369
0.598389 0.279541 0.023956
0.633301 0.285339 0.025482
0.667694 0.291107 0.027069
0.701630 0.296875 0.028442
0.735138 0.302521 0.029938
0.768250 0.308197 0.031433
0.801147 0.313751 0.032990
0.833618 0.319427 0.034607
0.865936 0.324921 0.036224
0.897919 0.330627 0.037933
0.929779 0.336243 0.039551
0.961395 0.341797 0.041168
0.012177 0.369354 0.012177
0.024780 0.361603 0.011902
0.045990 0.350952 0.011536
0.076233 0.339600 0.011139
0.103363 0.328644 0.010742
0.126038 0.318024 0.010376
0.144897 0.307892 0.010040
0.160400 0.298096 0.009705
0.177155 0.288147 0.009338
0.201172 0.277252 0.009064
0.224182 0.266571 0.008789
0.251312 0.260742 0.008636
0.288452 0.262268 0.009583
0.327301 0.265442 0.011475
0.366577 0.269897 0.013336
0.405334 0.274658 0.015045
0.443390 0.279358 0.016724
0.481384 0.285004 0.018402
0.518890 0.290894 0.020081
0.555664 0.296631 0.021698
0.591797 0.302429 0.023346
0.627411 0.307922 0.024902
0.662384 0.313690 0.026489
0.696960 0.319153 0.027985
0.731079 0.324768 0.029419
0.764801 0.330078 0.030945
0.798218 0.335571 0.032532
0.831360 0.341156 0.034088
0.864197 0.346558 0.035828
0.896820 0.352051 0.037476
0.929199 0.357635 0.039154
0.961395 0.362976 0.040771
0.013275 0.401855 0.013275
0.025146 0.394379 0.013031
0.045441 0.384216 0.012665
0.075348 0.373535 0.012299
0.102386 0.363129 0.011932
0.125153 0.353119 0.011597
0.144073 0.343445 0.011261
0.159729 0.334167 0.010956
0.176483 0.324677 0.010620
0.200409 0.314362 0.010254
0.223511 0.304108 0.009888
0.246246 0.294128 0.009521
0.279327 0.288544 0.009369
0.316406 0.290009 0.010590
0.356323 0.294342 0.012482
0.395691 0.298889 0.014282
0.434326 0.303528 0.015991
0.472900 0.308838 0.017700
0.511017 0.314575 0.019409
0.548401 0.320221 0.021057
0.585175 0.325714 0.022675
0.621429 0.331268 0.024323
0.657043 0.336639 0.025909
0.692291 0.342102 0.027496
0.726929 0.347382 0.028900
0.761353 0.352844 0.030457
0.795349 0.358032 0.032043
0.829041 0.363312 0.033630
0.862488 0.368683 0.035370
0.895660 0.373871 0.037018
0.928619 0.379395 0.038757
0.961365 0.384674 0.040405
0.014313 0.433563 0.014313
0.025482 0.426392 0.014069
0.045013 0.416870 0.013763
0.074463 0.406708 0.013428
0.101563 0.396912 0.013092
0.124359 0.387421 0.012817
0.143402 0.378265 0.012482
0.159058 0.369415 0.012177
0.175690 0.360535 0.011871
0.199677 0.350677 0.011536
0.222900 0.340912 0.011169
0.245056 0.331146 0.010834
0.274414 0.321869 0.010498
0.307709 0.316559 0.010315
0.345978 0.319305 0.011597
0.385864 0.323700 0.013458
0.425201 0.328125 0.015228
0.464233 0.333160 0.016968
0.503021 0.338715 0.018707
0.541077 0.344147 0.020386
0.578461 0.349457 0.022064
0.615326 0.354797 0.023682
0.651550 0.360199 0.025330
0.687378 0.365387 0.026917
0.722778 0.370575 0.028412
0.757782 0.375793 0.029968
0.792419 0.381012 0.031555
0.826691 0.386108 0.033173
0.860718 0.391327 0.034912
0.894470 0.396454 0.036560
0.928040 0.401581 0.038300
0.961365 0.406769 0.040039
0.015350 0.464844 0.015350
0.025940 0.457886 0.015106
0.044586 0.448792 0.014801
0.073639 0.439270 0.014496
0.100708 0.429962 0.014191
0.123474 0.420990 0.013885
0.142578 0.412354 0.013611
0.158295 0.404022 0.013336
0.174896 0.395538 0.013062
0.199097 0.386230 0.012756
0.222260 0.377045 0.012451
0.244507 0.367828 0.012115
0.272949 0.358551 0.011780
0.303101 0.350006 0.011505
0.337708 0.346161 0.011383
0.376038 0.348969 0.012665
0.415955 0.353302 0.014435
0.455505 0.358002 0.016205
0.494904 0.363312 0.018005
0.533630 0.368652 0.019714
0.571808 0.373810 0.021423
0.609192 0.379059 0.023102
0.646149 0.384125 0.024750
0.682526 0.389191 0.026398
0.718567 0.394348 0.027985
0.754150 0.399261 0.029449
0.789429 0.404327 0.031067
0.824249 0.409271 0.032715
0.858948 0.414276 0.034393
0.893311 0.419403 0.036163
0.927460 0.424377 0.037964
0.961334 0.429321 0.039703
0.016388 0.497314 0.016388
0.027924 0.490509 0.016174
0.046844 0.481812 0.015869
0.075562 0.472534 0.015594
0.102112 0.463654 0.015289
0.124634 0.455170 0.015015
0.143524 0.446899 0.014740
0.159210 0.438934 0.014465
0.175446 0.431000 0.014221
0.199341 0.422180 0.013947
0.222443 0.413391 0.013641
0.244537 0.404602 0.013336
0.272797 0.395813 0.013062
0.302155 0.387085 0.012787
0.332886 0.379364 0.012512
0.368134 0.376282 0.012421
0.406616 0.378967 0.013672
0.446686 0.383392 0.015442
0.486725 0.388611 0.017242
0.526093 0.393677 0.019043
0.564850 0.398773 0.020752
0.602997 0.403717 0.022461
0.640533 0.408875 0.024170
0.677612 0.413696 0.025818
0.714203 0.418518 0.027466
0.750488 0.423370 0.028961
0.786377 0.428375 0.030609
0.821899 0.433167 0.032257
0.857147 0.437958 0.033936
0.892059 0.442871 0.035736
0.926849 0.447784 0.037537
0.961304 0.452576 0.039337
0.017456 0.529388 0.017456
0.030121 0.522827 0.017242
0.050079 0.514587 0.016968
0.079041 0.506042 0.016693
0.105316 0.497650 0.016388
0.127441 0.489532 0.016144
0.145874 0.481598 0.015869
0.161041 0.474091 0.015625
0.176697 0.466400 0.015381
0.200165 0.458008 0.015106
0.223206 0.449707 0.014862
0.245239 0.441437 0.014587
0.273346 0.433167 0.014313
0.302704 0.424988 0.014038
0.332458 0.416779 0.013763
0.363617 0.409576 0.013519
0.399017 0.406677 0.013428
0.437683 0.409576 0.014679
0.478455 0.414490 0.016510
0.518433 0.419464 0.018311
0.557831 0.424347 0.020081
0.596649 0.429169 0.021820
0.634857 0.433960 0.023529
0.672546 0.438660 0.025238
0.709869 0.443481 0.026917
0.746735 0.448212 0.028442
0.783264 0.452942 0.030090
0.819427 0.457611 0.031769
0.855316 0.462280 0.033478
0.890869 0.466949 0.035339
0.926208 0.471649 0.037079
0.961304 0.476501 0.038910
0.018463 0.560516 0.018463
0.032135 0.554291 0.018280
0.053192 0.546631 0.018036
0.082581 0.538635 0.017761
0.108643 0.530853 0.017517
0.130646 0.523315 0.017273
0.148895 0.516022 0.017029
0.164093 0.508942 0.016785
0.179291 0.501831 0.016541
0.202667 0.493958 0.016296
0.225189 0.486145 0.016022
0.246979 0.478302 0.015778
0.274658 0.470459 0.015503
0.303680 0.462616 0.015259
0.333191 0.454742 0.014984
0.363190 0.446991 0.014740
0.394806 0.440125 0.014526
0.430389 0.437469 0.014435
0.469940 0.440979 0.015778
0.510712 0.445770 0.017578
0.550781 0.450531 0.019379
0.590149 0.455231 0.021149
0.629089 0.459839 0.022919
0.667419 0.464478 0.024658
0.705383 0.468964 0.026367
0.742920 0.473602 0.028015
0.780121 0.478210 0.029602
0.816925 0.482666 0.031281
0.853394 0.487274 0.033020
0.889648 0.491821 0.034882
0.925629 0.496307 0.036621
0.961273 0.500824 0.038483
0.019470 0.591034 0.019470
0.034393 0.585144 0.019287
0.056396 0.578033 0.019073
0.086121 0.570648 0.018829
0.111816 0.563416 0.018585
0.133728 0.556549 0.018341
0.151855 0.549713 0.018127
0.166840 0.543121 0.017914
0.181763 0.536591 0.017670
0.205017 0.529327 0.017456
0.227417 0.522095 0.017212
0.249084 0.514832 0.016968
0.276703 0.507568 0.016754
0.305511 0.500244 0.016510
0.334839 0.492981 0.016266
0.364777 0.485687 0.016022
0.395264 0.478424 0.015778
0.427155 0.472015 0.015564
0.463104 0.469482 0.015503
0.502808 0.472992 0.016846
0.543457 0.477539 0.018646
0.583618 0.482025 0.020447
0.623169 0.486542 0.022278
0.662262 0.490875 0.024048
0.700867 0.495422 0.025787
0.739075 0.499786 0.027527
0.776886 0.504089 0.029083
0.814331 0.508636 0.030792
0.851501 0.512970 0.032532
0.888336 0.517334 0.034332
0.924957 0.521820 0.036194
0.961273 0.526093 0.038086
0.020477 0.620972 0.020477
0.036682 0.615417 0.020264
0.059784 0.608856 0.020081
0.089386 0.602081 0.019867
0.114990 0.595459 0.019623
0.136688 0.589020 0.019409
0.154724 0.582855 0.019226
0.169769 0.576752 0.019012
0.184265 0.570740 0.018829
0.207367 0.564026 0.018585
0.229736 0.557373 0.018372
0.251190 0.550690 0.018158
0.278687 0.544006 0.017944
0.307343 0.537323 0.017700
0.336609 0.530579 0.017487
0.366394 0.523834 0.017273
0.396790 0.517151 0.017059
0.427734 0.510345 0.016815
0.459991 0.504364 0.016632
0.496094 0.501984 0.016541
0.536072 0.505280 0.017975
0.576874 0.509613 0.019775
0.617126 0.514069 0.021606
0.656921 0.518250 0.023407
0.696167 0.522522 0.025208
0.735107 0.526794 0.026947
0.773590 0.531036 0.028564
0.811737 0.535248 0.030304
0.849579 0.539520 0.032043
0.887054 0.543671 0.033813
0.924316 0.547943 0.035767
0.961243 0.552307 0.037720
0.021423 0.650452 0.021423
0.039154 0.645294 0.021271
0.062897 0.639252 0.021057
0.092712 0.633087 0.020874
0.118225 0.627045 0.020660
0.139679 0.621155 0.020477
0.157623 0.615448 0.020264
0.172485 0.609894 0.020111
0.186768 0.604431 0.019928
0.209686 0.598236 0.019714
0.231842 0.592194 0.019501
0.253296 0.586090 0.019318
0.280518 0.579895 0.019104
0.309082 0.573761 0.018921
0.338318 0.567627 0.018707
0.367950 0.561462 0.018494
0.398224 0.555328 0.018311
0.429199 0.549133 0.018097
0.460663 0.542938 0.017914
0.493317 0.537170 0.017700
0.529846 0.535004 0.017639
0.569977 0.538208 0.019073
0.610931 0.542419 0.020935
0.651428 0.546570 0.022736
0.691467 0.550690 0.024597
0.730988 0.554626 0.026398
0.770264 0.558807 0.028107
0.809052 0.562958 0.029785
0.847565 0.566925 0.031555
0.885742 0.570984 0.033356
0.923645 0.575104 0.035339
0.961212 0.579163 0.037231
0.022400 0.679504 0.022400
0.041718 0.674744 0.022217
0.066254 0.669220 0.022034
0.096008 0.663605 0.021881
0.121185 0.658142 0.021667
0.142548 0.652832 0.021515
0.160400 0.647705 0.021332
0.175171 0.642639 0.021179
0.189148 0.637665 0.020996
0.211975 0.632141 0.020844
0.234009 0.626617 0.020630
0.255341 0.621033 0.020477
0.282410 0.615448 0.020264
0.310974 0.609894 0.020111
0.339844 0.604218 0.019897
0.369446 0.598633 0.019745
0.399689 0.593079 0.019562
0.430511 0.587433 0.019348
0.461945 0.581726 0.019165
0.494202 0.576080 0.018982
0.527313 0.570679 0.018829
0.564209 0.568604 0.018738
0.604706 0.571838 0.020264
0.645874 0.575867 0.022095
0.686554 0.579742 0.023926
0.726868 0.583649 0.025787
0.766785 0.587494 0.027588
0.806305 0.591370 0.029266
0.845551 0.595428 0.031036
0.884369 0.599182 0.032898
0.922943 0.603119 0.034882
0.961212 0.606995 0.036743
0.023315 0.708221 0.023315
0.044067 0.703857 0.023193
0.069855 0.698883 0.023041
0.099365 0.693878 0.022858
0.124298 0.688965 0.022675
0.145477 0.684204 0.022552
0.163147 0.679565 0.022400
0.177856 0.675049 0.022247
0.191559 0.670563 0.022095
0.214142 0.665649 0.021912
0.236053 0.660645 0.021790
0.257263 0.655670 0.021606
0.284332 0.650604 0.021423
0.312622 0.645599 0.021271
0.341553 0.640625 0.021118
0.371063 0.635529 0.020935
0.401245 0.630432 0.020752
0.431915 0.625366 0.020630
0.463287 0.620239 0.020447
0.495392 0.615143 0.020264
0.528168 0.609985 0.020111
0.561951 0.604919 0.019928
0.599213 0.603027 0.019867
0.640137 0.606079 0.021423
0.681610 0.609802 0.023285
0.722656 0.613647 0.025146
0.763245 0.617462 0.027008
0.803497 0.621094 0.028717
0.843414 0.624878 0.030548
0.882965 0.628571 0.032410
0.922241 0.632355 0.034332
0.961182 0.636108 0.036285
0.024261 0.736725 0.024261
0.046692 0.732758 0.024139
0.073364 0.728394 0.023987
0.102570 0.723938 0.023834
0.127350 0.719543 0.023682
0.148376 0.715271 0.023560
0.165894 0.711182 0.023438
0.180695 0.707123 0.023315
0.193970 0.703186 0.023163
0.216492 0.698853 0.023041
0.238220 0.694427 0.022888
0.259277 0.690002 0.022736
0.286133 0.685547 0.022583
0.314331 0.681030 0.022430
0.343079 0.676544 0.022308
0.372528 0.672058 0.022156
0.402649 0.667603 0.022003
0.433380 0.663086 0.021851
0.464722 0.658569 0.021698
0.496735 0.653961 0.021545
0.529449 0.649292 0.021393
0.563019 0.644653 0.021240
0.597290 0.639923 0.021088
0.635071 0.638214 0.021027
0.676422 0.641083 0.022644
0.718262 0.644775 0.024536
0.759644 0.648407 0.026428
0.800568 0.652008 0.028198
0.841248 0.655579 0.030029
0.881531 0.659088 0.031921
0.921509 0.662659 0.033813
0.961151 0.666199 0.035858
0.025208 0.764954 0.025208
0.049255 0.761444 0.025085
0.076691 0.757599 0.024963
0.105835 0.753723 0.024841
0.130341 0.749847 0.024689
0.151184 0.746185 0.024597
0.168732 0.742615 0.024475
0.183319 0.739105 0.024323
0.196411 0.735687 0.024231
0.218628 0.731812 0.024078
0.240295 0.727966 0.023956
0.261169 0.724060 0.023834
0.288086 0.720215 0.023712
0.316162 0.716309 0.023590
0.344757 0.712372 0.023468
0.374054 0.708405 0.023315
0.404083 0.704498 0.023193
0.434692 0.700531 0.023071
0.466064 0.696533 0.022949
0.497955 0.692474 0.022827
0.530762 0.688477 0.022705
0.564209 0.684418 0.022552
0.598572 0.680206 0.022430
0.633636 0.676086 0.022278
0.671783 0.674316 0.022217
0.713745 0.677307 0.023895
0.755829 0.680634 0.025818
0.797607 0.684021 0.027710
0.839050 0.687439 0.029449
0.880096 0.690796 0.031342
0.920807 0.694244 0.033295
0.961151 0.697662 0.035431
0.026123 0.793060 0.026123
0.051849 0.790009 0.026001
0.080109 0.786652 0.025909
0.108887 0.783356 0.025787
0.133453 0.780090 0.025696
0.154114 0.776978 0.025604
0.171509 0.773834 0.025482
0.185974 0.770935 0.025391
0.198730 0.767975 0.025299
0.220947 0.764679 0.025177
0.242462 0.761414 0.025085
0.263123 0.758087 0.024963
0.289886 0.754730 0.024841
0.317902 0.751373 0.024719
0.346375 0.748016 0.024628
0.375610 0.744659 0.024536
0.405548 0.741241 0.024414
0.436096 0.737885 0.024323
0.467316 0.734467 0.024200
0.499237 0.730988 0.024078
0.532013 0.727509 0.023987
0.565430 0.723969 0.023834
0.599823 0.720428 0.023712
0.634857 0.716858 0.023621
0.671112 0.713226 0.023499
0.709595 0.711426 0.023438
0.751984 0.714264 0.025177
0.794617 0.717621 0.027130
0.836700 0.720642 0.028900
0.878510 0.723907 0.030823
0.919983 0.727203 0.032806
0.961090 0.730469 0.034882
0.027039 0.821106 0.027039
0.054657 0.818451 0.026947
0.083588 0.815704 0.026855
0.112213 0.812927 0.026764
0.136383 0.810272 0.026672
0.157043 0.807587 0.026581
0.174316 0.805023 0.026520
0.188599 0.802582 0.026428
0.201080 0.800171 0.026367
0.223175 0.797424 0.026245
0.244476 0.794647 0.026154
0.265259 0.791901 0.026093
0.291809 0.789124 0.026001
0.319611 0.786316 0.025879
0.348114 0.783508 0.025787
0.377136 0.780731 0.025726
0.407013 0.777893 0.025635
0.437469 0.774994 0.025513
0.468719 0.772186 0.025421
0.500549 0.769348 0.025330
0.533203 0.766479 0.025238
0.566742 0.763489 0.025146
0.601135 0.760559 0.025055
0.636230 0.757568 0.024963
0.672272 0.754517 0.024872
0.709290 0.751404 0.024750
0.748322 0.749725 0.024689
0.791351 0.752441 0.026489
0.834351 0.755463 0.028290
0.876892 0.758575 0.030243
0.919250 0.761566 0.032257
0.961060 0.764404 0.034302
0.027924 0.849030 0.027924
0.057343 0.846954 0.027863
0.087067 0.844696 0.027802
0.115295 0.842499 0.027740
0.139282 0.840332 0.027649
0.159851 0.838226 0.027588
0.176941 0.836212 0.027527
0.191315 0.834229 0.027466
0.203491 0.832275 0.027405
0.225281 0.830139 0.027313
0.246521 0.827881 0.027252
0.267303 0.825714 0.027191
0.293701 0.823456 0.027130
0.321320 0.821259 0.027039
0.349670 0.819000 0.026978
0.378662 0.816803 0.026886
