pics/luts/ademola studio Melanin 1..CUBE
#Created by: Adobe Photoshop Export Color Lookup Plugin
#Copyright: (C) Copyright 2020 Ncourage Photography
TITLE "11"
#LUT size
LUT_3D_SIZE 5
#data domain
#LUT data points
DOMAIN_MIN 0.000000 0.000000 0.000000
DOMAIN_MAX 0.903226 0.903226 0.903226
0.001068 0.001160 0.006165
0.153076 0.014130 0.013641
0.331665 0.025299 0.020996
0.514923 0.047333 0.033600
0.691833 0.069275 0.051361
0.023285 0.159241 0.027863
0.145630 0.103668 0.028992
0.324219 0.136139 0.034546
0.526520 0.179047 0.053162
0.718140 0.213593 0.074219
0.047791 0.362946 0.071014
0.196533 0.330292 0.058594
0.304535 0.246643 0.056183
0.495972 0.279877 0.077942
0.704437 0.330170 0.099915
0.082184 0.583130 0.125793
0.193878 0.584656 0.114716
0.400452 0.517761 0.108795
0.492249 0.420349 0.100739
0.676941 0.436768 0.125031
0.113068 0.803619 0.178986
0.205200 0.834930 0.177399
0.431854 0.784332 0.157562
0.628784 0.731079 0.162170
0.693573 0.620026 0.148499
0.018707 0.019806 0.146698
0.162170 0.025970 0.176147
0.345215 0.033234 0.175720
0.530762 0.051758 0.187225
0.708435 0.071106 0.201843
0.027740 0.164703 0.183685
0.173218 0.173767 0.194611
0.370056 0.180847 0.182068
0.564362 0.199158 0.186218
0.752441 0.224731 0.200623
0.054321 0.371613 0.208679
0.172211 0.400299 0.209412
0.353760 0.319702 0.182373
0.555664 0.353241 0.209076
0.767426 0.396454 0.222290
0.090607 0.596252 0.259033
0.187073 0.644012 0.274048
0.413666 0.596130 0.223785
0.543396 0.494232 0.211121
0.739594 0.518829 0.248047
0.122620 0.820892 0.313843
0.222687 0.876740 0.330383
0.419281 0.863861 0.273438
0.656891 0.804901 0.270203
0.746338 0.694946 0.251068
0.027740 0.034698 0.296204
0.143005 0.056946 0.375977
0.349854 0.055511 0.377441
0.542511 0.073090 0.389130
0.722809 0.092010 0.403046
0.042358 0.186066 0.369019
0.137604 0.201538 0.402710
0.378784 0.190063 0.412140
0.582214 0.217255 0.414948
0.773560 0.240570 0.428802
0.059265 0.381012 0.402618
0.158417 0.416351 0.437500
0.391632 0.419098 0.442810
0.620178 0.437622 0.448822
0.824646 0.455414 0.458557
0.095978 0.608337 0.444458
0.194946 0.656097 0.474823
0.401642 0.683258 0.470581
0.611084 0.610382 0.453247
0.826660 0.643463 0.491455
0.128998 0.836090 0.492035
0.230988 0.892120 0.524445
0.422638 0.918030 0.527283
0.670135 0.903046 0.494415
0.822723 0.813812 0.485962
0.044861 0.061951 0.440186
0.152161 0.088928 0.569611
0.348846 0.090454 0.580261
0.543945 0.097076 0.597290
0.731964 0.113678 0.613678
0.065979 0.218933 0.556824
0.158051 0.234131 0.604584
0.369934 0.225922 0.628571
0.587585 0.235687 0.649445
0.788208 0.263824 0.662994
0.082184 0.400177 0.605011
0.181244 0.433563 0.647949
0.369232 0.437195 0.677368
0.625427 0.446716 0.704041
0.843933 0.478027 0.711945
0.099701 0.621521 0.651337
0.202057 0.666351 0.695831
0.381348 0.701202 0.733246
0.671326 0.734222 0.770538
0.898956 0.760773 0.786987
0.132050 0.851593 0.702667
0.237152 0.901886 0.746552
0.392517 0.934357 0.783051
0.699615 0.952972 0.812592
0.889374 0.922119 0.812592
0.062744 0.087830 0.583588
0.167053 0.114471 0.732178
0.310852 0.137390 0.782715
0.543488 0.127869 0.787567
0.732941 0.136536 0.811371
0.086609 0.250153 0.726654
0.174316 0.271576 0.793304
0.316589 0.284454 0.833466
0.587738 0.273376 0.852722
0.791626 0.285339 0.880768
0.102356 0.432709 0.792877
0.202881 0.466309 0.843231
0.339783 0.492065 0.875488
0.617798 0.481079 0.904846
0.842224 0.501617 0.924438
0.118988 0.638458 0.847229
0.231018 0.676422 0.889862
0.383820 0.715881 0.913025
0.672546 0.753906 0.940643
0.906219 0.795776 0.957520
0.133667 0.867584 0.898102
0.267944 0.904114 0.920258
0.449860 0.933533 0.941833
0.739227 0.955475 0.962219
0.947357 0.973663 0.973938
