pics/luts/ademolastudios Light SKin 2..CUBE
#Created by: Adobe Photoshop Export Color Lookup Plugin
#Copyright: (C) Copyright 2020 Ncourage Photography
TITLE "22"
#LUT size
LUT_3D_SIZE 5
#data domain
#LUT data points
DOMAIN_MIN 0.000000 0.000000 0.000000
DOMAIN_MAX 0.903226 0.903226 0.903226
0.000000 0.000000 0.000000
0.223602 0.035034 0.009949
0.462891 0.070282 0.020477
0.684967 0.108765 0.030334
0.881134 0.147186 0.040039
0.007843 0.233032 0.007843
0.168091 0.156189 0.006134
0.406219 0.179504 0.016357
0.650482 0.221252 0.027222
0.870850 0.263306 0.037567
0.015350 0.464844 0.015350
0.158295 0.404022 0.013336
0.337708 0.346161 0.011383
0.609192 0.379059 0.023102
0.858948 0.414276 0.034393
0.022400 0.679504 0.022400
0.175171 0.642639 0.021179
0.339844 0.604218 0.019897
0.564209 0.568604 0.018738
0.845551 0.595428 0.031036
0.028717 0.876984 0.028717
0.193970 0.865875 0.028351
0.351410 0.854462 0.028046
0.569244 0.842407 0.027740
0.829498 0.829895 0.027344
0.008118 0.008118 0.243469
0.235016 0.008026 0.240021
0.471863 0.042908 0.224396
0.690948 0.079102 0.236908
0.885468 0.115051 0.248077
0.007935 0.231628 0.236755
0.216858 0.216858 0.223145
0.452820 0.229828 0.194885
0.677856 0.266724 0.200684
0.883545 0.304779 0.210327
0.015259 0.462799 0.224701
0.194397 0.455231 0.194397
0.384125 0.391174 0.146973
0.635895 0.417694 0.158966
0.870331 0.448700 0.171539
0.022339 0.677917 0.241638
0.207733 0.675751 0.207733
0.384918 0.634888 0.159546
0.590027 0.595642 0.114777
0.855591 0.618774 0.131348
0.028687 0.876404 0.257965
0.223206 0.881927 0.223206
0.394104 0.868439 0.178284
0.594727 0.854279 0.132782
0.838013 0.839478 0.086548
0.015930 0.015930 0.483002
0.235016 0.015747 0.477264
0.471527 0.015564 0.471527
0.688629 0.047882 0.481323
0.883270 0.082550 0.489746
0.015564 0.230957 0.471771
0.199860 0.199860 0.464111
0.458466 0.196320 0.458466
0.682587 0.241486 0.461884
0.887482 0.281952 0.467102
0.015198 0.460724 0.460724
0.193146 0.453247 0.453247
0.441223 0.441223 0.441284
0.673218 0.465851 0.443726
0.888611 0.488159 0.444336
0.022278 0.676239 0.469452
0.206360 0.674133 0.455078
0.431244 0.673676 0.431244
0.632111 0.635956 0.394836
0.875031 0.650146 0.408966
0.028656 0.875854 0.477631
0.221985 0.881348 0.461151
0.432861 0.887543 0.432861
0.625793 0.874664 0.396820
0.859283 0.860840 0.359375
0.023102 0.023102 0.700806
0.258331 0.022949 0.696320
0.488922 0.022797 0.691925
0.687469 0.022644 0.687469
0.881683 0.054138 0.695129
0.022797 0.254517 0.692078
0.219727 0.219727 0.690552
0.469604 0.215942 0.685944
0.681335 0.212219 0.681335
0.885925 0.254639 0.685638
0.022522 0.478271 0.683411
0.212311 0.464172 0.681488
0.440521 0.440521 0.681213
0.676544 0.434692 0.676544
0.890228 0.467896 0.675293
0.022217 0.674561 0.674561
0.204987 0.672424 0.672424
0.429016 0.671967 0.671967
0.688721 0.688721 0.688721
0.899506 0.705414 0.693329
0.028656 0.875366 0.680450
0.220795 0.880737 0.675262
0.430939 0.886932 0.666412
0.680756 0.899933 0.680756
0.887329 0.888214 0.657562
0.029022 0.029022 0.886169
0.278564 0.028992 0.884705
0.504303 0.028931 0.883301
0.699097 0.028870 0.881836
0.880432 0.028809 0.880432
0.028900 0.274994 0.883362
0.239166 0.239166 0.889618
0.482910 0.235840 0.887970
0.690399 0.232483 0.886383
0.884796 0.229156 0.884796
0.028839 0.494263 0.880524
0.232635 0.477966 0.886444
0.450226 0.450226 0.892883
0.677704 0.444794 0.891205
0.889526 0.439392 0.889526
0.028717 0.687195 0.877686
0.226105 0.682037 0.883331
0.439545 0.673523 0.889557
0.688812 0.688812 0.902618
0.900940 0.683807 0.900940
0.028625 0.874817 0.874817
0.219543 0.880157 0.880157
0.428986 0.886261 0.886261
0.678955 0.899292 0.899292
0.910187 0.910187 0.910187
