pics/luts/ademola studio Melanin 1..CUBE
#Created by: Adobe Photoshop Export Color Lookup Plugin
#Copyright: (C) Copyright 2020 Ncourage Photography
TITLE "11"
#LUT size
LUT_3D_SIZE 8
#data domain
#LUT data points
DOMAIN_MIN 0.000000 0.000000 0.000000
DOMAIN_MAX 0.903226 0.903226 0.903226
0.001068 0.001160 0.006165
0.079742 0.008728 0.010681
0.178284 0.015564 0.014679
0.280182 0.020935 0.018250
0.383545 0.030457 0.023987
0.489075 0.043640 0.031494
0.591888 0.057068 0.040985
0.691833 0.069275 0.051361
0.013092 0.078278 0.016022
0.081940 0.054626 0.018372
0.176056 0.071533 0.022095
0.282043 0.088501 0.023804
0.390228 0.104095 0.030823
0.498260 0.121735 0.040924
0.604492 0.137939 0.052704
0.707306 0.154297 0.064301
0.025330 0.187347 0.031464
0.111145 0.165680 0.031006
0.164764 0.121887 0.031677
0.262329 0.136993 0.033691
0.376831 0.161987 0.042511
0.493408 0.187683 0.053802
0.609253 0.211792 0.065887
0.721100 0.234680 0.077606
0.037811 0.303223 0.055847
0.108856 0.294769 0.046936
0.210144 0.254456 0.047302
0.254913 0.202881 0.045013
0.355988 0.213593 0.056274
0.475311 0.244965 0.068481
0.594543 0.272705 0.080505
0.710236 0.298706 0.092865
0.057556 0.424347 0.086273
0.105865 0.429413 0.081238
0.222717 0.390656 0.071594
0.317200 0.352356 0.073486
0.356476 0.293640 0.068542
0.455109 0.297455 0.081543
0.577637 0.331177 0.094360
0.697052 0.361511 0.107605
0.077423 0.551331 0.117981
0.126740 0.561584 0.112671
0.228882 0.536774 0.100037
0.342834 0.498077 0.100922
0.438477 0.466736 0.103088
0.464447 0.394226 0.094086
0.564789 0.396027 0.109100
0.681549 0.422302 0.121613
0.096069 0.678833 0.149078
0.146088 0.694824 0.143890
0.215759 0.688965 0.140381
0.358337 0.648834 0.129150
0.471344 0.615051 0.131012
0.566223 0.593506 0.134125
0.577240 0.502411 0.120728
0.678558 0.503601 0.136444
0.113068 0.803619 0.178986
0.166779 0.824127 0.177094
0.217743 0.836823 0.178223
0.364441 0.800201 0.156830
0.493927 0.770294 0.158356
0.604034 0.738983 0.161438
0.699249 0.728485 0.164764
0.693573 0.620026 0.148499
0.011627 0.011841 0.081726
0.082092 0.016357 0.095306
0.185150 0.019714 0.094727
0.287811 0.022675 0.094208
0.391479 0.030060 0.095398
0.497711 0.040955 0.104248
0.601166 0.052338 0.113373
0.701050 0.064178 0.122192
0.018036 0.080353 0.098419
0.087524 0.085693 0.103119
0.194305 0.089844 0.098083
0.298859 0.090729 0.088867
0.403107 0.101501 0.087646
0.512085 0.118652 0.096832
0.619232 0.135468 0.107208
0.722534 0.152374 0.117676
0.028534 0.190460 0.110535
0.087646 0.201874 0.111786
0.186676 0.158691 0.105927
0.288940 0.170593 0.099609
0.401855 0.188904 0.098785
0.519897 0.213043 0.107697
0.632294 0.231079 0.118500
0.738342 0.246582 0.129425
0.041840 0.307404 0.128357
0.089264 0.325256 0.131195
0.216064 0.293274 0.105530
0.278107 0.236664 0.101837
0.380157 0.246368 0.110687
0.501221 0.275909 0.119965
0.621857 0.302216 0.130768
0.738556 0.327606 0.141907
0.061707 0.429718 0.152008
0.108276 0.449585 0.153839
0.216980 0.429626 0.123169
0.330322 0.386505 0.120667
0.377319 0.324341 0.113129
0.479523 0.330933 0.131592
0.603088 0.363770 0.143463
0.724304 0.393555 0.154968
0.082245 0.558380 0.184143
0.131104 0.582031 0.187378
0.208557 0.579956 0.160309
0.349091 0.535492 0.148071
0.453430 0.494904 0.145935
0.485229 0.424347 0.133575
0.586426 0.425537 0.154572
0.707153 0.455841 0.166931
0.101501 0.687592 0.217133
0.152893 0.715088 0.221130
0.207336 0.729065 0.208649
0.357727 0.688416 0.177429
0.481842 0.649994 0.175018
0.581451 0.620331 0.173157
0.597687 0.531952 0.157257
0.699768 0.532501 0.176605
0.118896 0.813751 0.249023
0.172974 0.844482 0.254456
0.226776 0.862579 0.248230
0.355896 0.839447 0.210022
0.499512 0.805573 0.204132
0.616364 0.770813 0.202728
0.713898 0.753235 0.200684
0.712982 0.647675 0.181427
0.020142 0.021851 0.168060
0.075745 0.029053 0.202606
0.188812 0.028107 0.203949
0.294495 0.031769 0.203369
0.399200 0.040863 0.204376
0.506378 0.052032 0.212769
0.610596 0.062805 0.221313
0.710754 0.073944 0.229584
0.024109 0.092041 0.198517
0.071838 0.097687 0.212555
0.198792 0.093079 0.215576
0.307007 0.099091 0.209229
0.413818 0.107117 0.207947
0.524323 0.120911 0.215607
0.632629 0.134644 0.224243
0.736755 0.148743 0.233063
0.029999 0.194183 0.213470
0.080231 0.207794 0.227448
0.201843 0.204865 0.227234
0.320679 0.212250 0.220642
0.431122 0.214996 0.214233
0.544678 0.225739 0.218018
0.655945 0.238281 0.224426
0.762604 0.252197 0.232208
0.044373 0.312012 0.227234
0.093140 0.329498 0.236816
0.196991 0.339020 0.227966
0.311646 0.290680 0.213959
0.422546 0.304443 0.227783
0.545929 0.326416 0.231140
0.667877 0.347839 0.236694
0.779877 0.363312 0.244080
0.065674 0.435425 0.244446
0.112823 0.455322 0.254517
0.204071 0.471130 0.247162
0.335449 0.442047 0.222961
0.414581 0.380524 0.216614
0.524597 0.393188 0.246094
0.651062 0.421143 0.252197
0.772888 0.446808 0.258911
0.086609 0.565308 0.274872
0.136078 0.589081 0.285248
0.214050 0.612579 0.284424
0.336212 0.593353 0.245789
0.471436 0.550812 0.244843
0.525421 0.483032 0.234467
0.630310 0.485382 0.266052
0.756683 0.518921 0.274841
0.106079 0.695801 0.306030
0.158081 0.723450 0.316986
0.220398 0.755737 0.327057
0.330505 0.746948 0.281250
0.486877 0.708008 0.269897
0.605255 0.669464 0.269684
0.640503 0.593689 0.255737
0.743103 0.590759 0.282318
0.123688 0.823090 0.336975
0.178284 0.854034 0.348755
0.240112 0.887573 0.358887
0.341400 0.888580 0.321167
0.493347 0.861725 0.296875
0.631500 0.828674 0.296204
0.739807 0.802185 0.295319
0.757568 0.711365 0.278412
0.024139 0.028473 0.255585
0.077179 0.040649 0.310242
0.185669 0.041443 0.314270
0.296051 0.044067 0.318512
0.404419 0.053101 0.319672
0.512909 0.064240 0.327606
0.618317 0.074829 0.335876
0.719147 0.085876 0.343933
0.030640 0.105164 0.299072
0.074615 0.108826 0.319397
0.188904 0.103943 0.328644
0.309967 0.107330 0.333984
0.420349 0.119049 0.331024
0.532318 0.133942 0.338135
0.641602 0.148041 0.346802
0.746552 0.162323 0.355865
0.038300 0.202911 0.319336
0.086212 0.214996 0.335358
0.181519 0.210388 0.346466
0.323029 0.208862 0.353424
0.440430 0.223419 0.345154
0.555450 0.235596 0.350067
0.668182 0.247131 0.357086
0.775879 0.259369 0.364899
0.047791 0.316864 0.337463
0.097687 0.332855 0.353271
0.187225 0.345917 0.367371
0.325256 0.343964 0.366699
0.454437 0.352142 0.362701
0.575348 0.361389 0.367218
0.692841 0.370789 0.371765
0.804138 0.381195 0.376801
0.067200 0.441437 0.355225
0.116394 0.460449 0.368347
0.190338 0.484100 0.381714
0.323975 0.489319 0.369995
0.446289 0.442902 0.360046
0.569061 0.460449 0.384033
0.698944 0.482666 0.387024
0.820892 0.503967 0.391602
0.089691 0.571899 0.380127
0.140106 0.595551 0.393341
0.203979 0.625885 0.409912
0.334412 0.634430 0.394867
0.472076 0.609711 0.373322
0.563843 0.548279 0.369598
0.678375 0.558350 0.405273
0.806793 0.587921 0.410492
0.109650 0.703552 0.406647
0.162292 0.731262 0.421906
0.225220 0.763763 0.439911
0.346313 0.778564 0.427277
0.470551 0.767548 0.397064
0.620544 0.728455 0.396332
0.682861 0.661194 0.386932
0.788696 0.658020 0.418793
0.127472 0.831879 0.436371
0.182648 0.862854 0.453674
0.245148 0.895020 0.471222
0.354950 0.908875 0.464478
0.471497 0.909882 0.433655
0.634430 0.885925 0.420074
0.761566 0.851654 0.422119
0.801697 0.779175 0.407928
0.031921 0.042236 0.335541
0.085114 0.055939 0.415680
0.165344 0.069061 0.435547
0.292694 0.063232 0.431274
0.404694 0.067261 0.438385
0.517303 0.076691 0.447144
0.624084 0.087524 0.455078
0.726044 0.098297 0.463257
0.042603 0.120605 0.397705
0.083069 0.126831 0.428894
0.159882 0.131348 0.454254
0.304382 0.125305 0.450012
0.422424 0.130280 0.458405
0.538086 0.146149 0.464813
0.648865 0.161346 0.473145
0.754852 0.175842 0.482239
0.051147 0.219391 0.428497
0.094238 0.231659 0.448120
0.162354 0.239563 0.470032
0.310089 0.221497 0.473846
0.441559 0.227570 0.483490
0.563507 0.245880 0.486267
0.677368 0.260742 0.491882
0.786041 0.274292 0.499786
0.060699 0.323029 0.448822
0.108459 0.337860 0.466766
0.174652 0.357880 0.491180
0.307404 0.346710 0.494995
0.454315 0.349518 0.506104
0.585907 0.369476 0.506470
0.704102 0.382324 0.511383
0.816284 0.393585 0.518250
0.070953 0.447296 0.470367
0.120819 0.465302 0.488068
0.186798 0.491455 0.514313
0.315186 0.495239 0.520691
0.462555 0.499756 0.526337
0.603668 0.513458 0.531921
0.728577 0.524872 0.539917
0.845398 0.535736 0.546844
0.089539 0.580017 0.497955
0.143372 0.601898 0.514801
0.208008 0.632385 0.538635
0.326080 0.645966 0.539795
0.469940 0.659027 0.542755
0.591949 0.613739 0.536835
0.725220 0.634399 0.561249
0.855286 0.659149 0.567108
0.112061 0.711304 0.524139
0.165771 0.738708 0.542603
0.229401 0.771271 0.564209
0.335693 0.791870 0.566193
0.481476 0.807678 0.568542
0.623901 0.788422 0.554291
0.720062 0.730896 0.552795
0.838074 0.738617 0.581665
0.130249 0.840454 0.551758
0.186218 0.871216 0.570892
0.249451 0.900696 0.591370
0.337006 0.919464 0.604950
0.494904 0.927826 0.600342
0.627136 0.925110 0.585510
0.777435 0.905701 0.581024
0.842560 0.848999 0.573364
0.042664 0.058105 0.422333
0.096252 0.071564 0.505310
0.170746 0.087769 0.547485
0.290955 0.085693 0.549255
0.403534 0.086700 0.555389
0.516388 0.091309 0.565643
0.627380 0.099945 0.575348
0.731049 0.110657 0.583832
0.055511 0.140686 0.498413
0.097473 0.148102 0.541382
0.169159 0.151459 0.569305
0.301361 0.151093 0.574036
0.422241 0.152954 0.580811
0.539215 0.158600 0.591797
0.654236 0.173187 0.600800
0.761780 0.188751 0.609772
0.064819 0.239349 0.538757
0.108978 0.252472 0.564545
0.175201 0.258606 0.587860
0.299133 0.245544 0.602081
0.437408 0.247681 0.609894
0.563080 0.254639 0.622650
0.684692 0.271118 0.629639
0.794556 0.287476 0.636108
0.074036 0.342255 0.564301
0.120209 0.359772 0.587952
0.188202 0.375183 0.612213
0.295471 0.369995 0.626678
0.444946 0.363983 0.638641
0.583008 0.372528 0.652649
0.713318 0.390839 0.657379
0.826233 0.407410 0.661713
0.083801 0.456940 0.589142
0.135254 0.473999 0.610748
0.200836 0.495514 0.638214
0.301453 0.506500 0.657074
0.451111 0.506073 0.666565
0.602722 0.515778 0.682434
0.740021 0.534485 0.687073
0.857117 0.549774 0.692261
0.094208 0.586273 0.614807
0.147400 0.607971 0.636322
0.212524 0.636993 0.665558
0.298431 0.661987 0.691254
0.461304 0.664612 0.697723
0.628845 0.687103 0.722198
0.768585 0.702728 0.729889
0.889069 0.716339 0.740295
0.111267 0.720825 0.645020
0.168549 0.746033 0.666199
0.232880 0.778625 0.693787
0.304413 0.812592 0.722412
0.474121 0.819458 0.718903
0.643585 0.844818 0.743835
0.755707 0.804810 0.743958
0.888092 0.827667 0.764160
0.131897 0.849182 0.672485
0.189148 0.879395 0.695801
0.253021 0.906158 0.721497
0.324646 0.928131 0.748169
0.486786 0.935059 0.742432
0.658752 0.948395 0.770538
0.799469 0.940765 0.774506
0.880219 0.912750 0.766602
0.052643 0.073425 0.502594
0.108185 0.085876 0.589142
0.176086 0.104736 0.653839
0.263000 0.115540 0.672699
0.404510 0.106293 0.668213
0.513855 0.109192 0.678497
0.626190 0.114380 0.690918
0.732971 0.122742 0.700470
0.067596 0.159668 0.594147
0.110962 0.167938 0.648895
0.175842 0.170990 0.679443
0.263153 0.187988 0.704529
0.423309 0.176331 0.699036
0.539185 0.180298 0.710358
0.654846 0.186523 0.723633
0.766602 0.200165 0.734558
0.077454 0.257629 0.642334
0.122864 0.271820 0.675507
0.187164 0.278076 0.700134
0.261078 0.287872 0.732758
0.433777 0.270599 0.731537
0.561554 0.275360 0.744354
0.683472 0.282898 0.759613
0.801270 0.297699 0.769653
0.086395 0.361328 0.675018
0.134186 0.379547 0.702148
0.201202 0.393494 0.727356
0.271332 0.407867 0.756134
0.435883 0.385132 0.764404
0.578827 0.391144 0.778259
0.708496 0.400391 0.794769
0.834442 0.416260 0.803925
0.096283 0.468964 0.702515
0.146576 0.490967 0.729370
0.214172 0.511902 0.756104
0.284912 0.534698 0.786560
0.441528 0.524292 0.795532
0.595642 0.530884 0.813263
0.736481 0.542908 0.830597
0.866455 0.559418 0.839691
0.105530 0.596130 0.731384
0.160797 0.617645 0.756134
0.226074 0.642761 0.785767
0.297455 0.669556 0.817596
0.451141 0.669006 0.828979
0.622284 0.695313 0.854218
0.771942 0.715576 0.873047
0.899384 0.730438 0.882813
0.115387 0.728058 0.760132
0.172058 0.752930 0.784668
0.236877 0.784241 0.815613
0.308594 0.817261 0.848358
0.456512 0.829346 0.863281
0.635742 0.850433 0.886719
0.797882 0.873688 0.906525
0.915619 0.889038 0.913086
0.130798 0.859375 0.791046
0.191406 0.887421 0.815582
0.255981 0.911194 0.845398
0.328247 0.932800 0.876221
0.466919 0.943848 0.890228
0.652557 0.954285 0.906647
0.818054 0.964996 0.921234
0.915070 0.948669 0.925140
0.062744 0.087830 0.583588
0.119202 0.099213 0.669800
0.182678 0.119598 0.751282
0.263855 0.132690 0.773621
0.396759 0.127319 0.775940
0.515961 0.127106 0.784515
0.622864 0.131104 0.797363
0.732941 0.136536 0.811371
0.078461 0.177185 0.682983
0.123291 0.186798 0.748047
0.184235 0.192169 0.781067
0.271790 0.206207 0.806519
0.414185 0.202332 0.811890
0.541748 0.202484 0.821350
0.654388 0.207520 0.835297
0.766876 0.214020 0.850586
0.088989 0.275208 0.738007
0.135986 0.290466 0.778473
0.197540 0.297791 0.805206
0.273926 0.305603 0.830933
0.420471 0.297516 0.846558
0.560822 0.297821 0.858337
0.682861 0.303741 0.873840
0.799286 0.311554 0.889252
0.097839 0.379028 0.776428
0.146698 0.398773 0.808594
0.213013 0.411652 0.834686
0.288025 0.422729 0.853149
0.419312 0.412476 0.875824
0.574738 0.413208 0.890472
0.707092 0.421234 0.902557
0.827667 0.431976 0.913757
0.107330 0.487579 0.808167
0.158752 0.511261 0.838898
0.228424 0.529266 0.862518
0.307892 0.546936 0.880219
0.431366 0.550171 0.897339
0.591797 0.552277 0.913055
0.733246 0.563965 0.924438
0.859283 0.578796 0.934692
0.116760 0.605316 0.839203
0.171478 0.629150 0.869019
0.246124 0.648407 0.888245
0.330200 0.671753 0.901611
0.449921 0.688599 0.916382
0.625000 0.710541 0.933258
0.774292 0.734650 0.945190
0.899231 0.753357 0.953949
0.125153 0.737976 0.870941
0.185455 0.762146 0.894684
0.265778 0.784088 0.906891
0.356598 0.808380 0.919708
0.472076 0.831085 0.932831
0.653168 0.849030 0.947998
0.811707 0.882202 0.958923
0.924744 0.909637 0.966705
0.133667 0.867584 0.898102
0.203949 0.890778 0.911224
0.290924 0.908386 0.923370
0.392273 0.925171 0.935822
0.514679 0.941803 0.947571
0.696991 0.952393 0.959686
0.857147 0.963745 0.967987
0.947357 0.973663 0.973938
