pics/luts/ademola studio Melanin 1..CUBE
#Created by: Adobe Photoshop Export Color Lookup Plugin
#Copyright: (C) Copyright 2020 Ncourage Photography
TITLE "11"
#LUT size
LUT_3D_SIZE 32
#data domain
DOMAIN_MIN 0.0 0.0 0.0
DOMAIN_MAX 1.0 1.0 1.0
#LUT data points
0.001068 0.001160 0.006165
0.006348 0.001495 0.006256
0.032410 0.004272 0.007996
0.056488 0.006500 0.009644
0.079742 0.008728 0.010681
0.103363 0.010376 0.011902
0.128052 0.012512 0.012970
0.153076 0.014130 0.013641
0.178284 0.015564 0.014679
0.203674 0.016663 0.015472
0.229065 0.017731 0.016357
0.254395 0.019165 0.017029
0.280182 0.020935 0.018250
0.305817 0.023102 0.019592
0.331665 0.025299 0.020996
0.357452 0.027771 0.022491
0.383545 0.030457 0.023987
0.409912 0.033722 0.025635
0.436401 0.036957 0.027466
0.462769 0.040375 0.029388
0.489075 0.043640 0.031494
0.514923 0.047333 0.033600
0.540833 0.050385 0.035980
0.566559 0.053711 0.038422
0.591888 0.057068 0.040985
0.617249 0.060181 0.043488
0.642303 0.063416 0.046143
0.667175 0.066315 0.048828
0.691833 0.069275 0.051361
0.716156 0.072113 0.054077
0.740173 0.075256 0.056824
0.764526 0.077393 0.059845
0.001953 0.004944 0.006622
0.008484 0.004242 0.006927
0.035339 0.008209 0.008728
0.059479 0.011078 0.010284
0.082764 0.013763 0.011322
0.106415 0.016235 0.012390
0.130981 0.018646 0.013855
0.155731 0.020752 0.014618
0.180847 0.022400 0.015656
0.205841 0.023956 0.016418
0.231140 0.025024 0.017365
0.256775 0.026550 0.018219
0.282349 0.028839 0.019440
0.308197 0.031616 0.020874
0.334015 0.034485 0.022369
0.359619 0.037933 0.023834
0.385345 0.042053 0.025269
0.411926 0.046204 0.027039
0.438171 0.050507 0.028809
0.464569 0.054779 0.030792
0.490814 0.059387 0.032837
0.517090 0.063202 0.035370
0.543152 0.067261 0.037903
0.569336 0.070679 0.040833
0.595123 0.074493 0.043640
0.621033 0.078369 0.046570
0.646545 0.082092 0.049530
0.671722 0.085754 0.052399
0.696503 0.089813 0.055145
0.720947 0.093842 0.057831
0.744873 0.097809 0.060547
0.769165 0.101959 0.063354
0.005798 0.027039 0.009644
0.013397 0.026520 0.010315
0.034424 0.020294 0.011261
0.060181 0.025055 0.012665
0.084259 0.029633 0.013672
0.109406 0.033295 0.014526
0.134705 0.036621 0.015442
0.158875 0.038177 0.016724
0.182739 0.039764 0.017578
0.207214 0.041138 0.017914
0.232056 0.042328 0.018799
0.257660 0.044159 0.019257
0.283020 0.046753 0.020416
0.308563 0.049377 0.021851
0.334290 0.052185 0.023193
0.360016 0.055267 0.024750
0.386200 0.059204 0.026398
0.413055 0.063965 0.028259
0.439697 0.068726 0.030243
0.466644 0.073181 0.032684
0.493164 0.077850 0.035156
0.519684 0.082214 0.037933
0.545929 0.086731 0.040588
0.572235 0.090790 0.043549
0.598328 0.095001 0.046539
0.624054 0.099091 0.049377
0.649475 0.103424 0.052124
0.674561 0.107544 0.055054
0.699432 0.111908 0.057739
0.723846 0.116425 0.060364
0.748138 0.120575 0.063110
0.772125 0.124878 0.065857
0.009460 0.052185 0.012848
0.017059 0.051788 0.012939
0.043945 0.045654 0.014313
0.058960 0.037292 0.015228
0.081970 0.041473 0.016388
0.106140 0.046509 0.017365
0.131165 0.050476 0.018097
0.156128 0.054352 0.018860
0.181122 0.057831 0.019409
0.206177 0.061340 0.019440
0.232025 0.064941 0.019928
0.257751 0.067261 0.020538
0.283722 0.069916 0.021515
0.309479 0.072632 0.023285
0.335266 0.075714 0.024658
0.361542 0.078552 0.026489
0.388245 0.082367 0.028442
0.415222 0.086853 0.030609
0.442078 0.091400 0.032776
0.469025 0.095764 0.035339
0.495697 0.100342 0.037933
0.522247 0.104797 0.040649
0.548706 0.109009 0.043457
0.575073 0.113037 0.046387
0.601349 0.117218 0.049469
0.627197 0.121246 0.052399
0.652954 0.125458 0.055298
0.678253 0.129578 0.058105
0.703369 0.133514 0.061005
0.728149 0.137787 0.063904
0.752319 0.141907 0.066559
0.776581 0.146118 0.069366
0.013092 0.078278 0.016022
0.020264 0.077881 0.016083
0.047729 0.072479 0.016724
0.071472 0.065216 0.018372
0.081940 0.054626 0.018372
0.103180 0.057465 0.019775
0.127655 0.062683 0.020844
0.152100 0.067047 0.021851
0.176056 0.071533 0.022095
0.200867 0.075165 0.022522
0.226837 0.079437 0.022308
0.254547 0.083649 0.022552
0.282043 0.088501 0.023804
0.309723 0.093170 0.025391
0.337067 0.097260 0.026825
0.363251 0.100342 0.028656
0.390228 0.104095 0.030823
0.417328 0.108612 0.033020
0.444489 0.112793 0.035583
0.471405 0.117340 0.038208
0.498260 0.121735 0.040924
0.524994 0.126007 0.043823
0.551758 0.129974 0.046814
0.578278 0.133911 0.049744
0.604492 0.137939 0.052704
0.630585 0.141998 0.055603
0.656433 0.146057 0.058563
0.682007 0.150146 0.061523
0.707306 0.154297 0.064301
0.732147 0.158356 0.067261
0.756622 0.162231 0.069855
0.780914 0.166260 0.072601
0.017059 0.104614 0.019806
0.023193 0.104492 0.019989
0.048798 0.100067 0.019928
0.077087 0.090546 0.021942
0.094788 0.082275 0.022064
0.104309 0.071655 0.022278
0.124237 0.072845 0.023743
0.147583 0.078156 0.024384
0.171448 0.083130 0.024841
0.195587 0.087280 0.025024
0.222046 0.091858 0.024597
0.249512 0.096710 0.024872
0.277008 0.101837 0.026154
0.305206 0.106750 0.027679
0.333099 0.111969 0.029297
0.361389 0.116913 0.031464
0.389801 0.122498 0.033417
0.418915 0.128510 0.035828
0.446533 0.133636 0.038513
0.473694 0.137909 0.041138
0.500671 0.142212 0.043854
0.527740 0.146210 0.046814
0.554626 0.150208 0.050049
0.581146 0.154266 0.052856
0.607635 0.158173 0.055908
0.633911 0.162170 0.058960
0.659882 0.166107 0.061859
0.685547 0.170258 0.064850
0.710999 0.174103 0.067596
0.735962 0.177917 0.070404
0.760712 0.182007 0.073120
0.785187 0.185944 0.076050
0.020264 0.131927 0.024048
0.026093 0.131531 0.024109
0.048828 0.128326 0.023163
0.079742 0.118134 0.024689
0.103577 0.108002 0.026428
0.113983 0.096497 0.025177
0.125244 0.087982 0.025757
0.143860 0.087952 0.026855
0.166779 0.093170 0.027374
0.190247 0.098145 0.027374
0.216766 0.103333 0.027283
0.244629 0.108521 0.027344
0.272522 0.113770 0.028320
0.300690 0.119080 0.029755
0.328583 0.124359 0.031891
0.356873 0.129852 0.034119
0.386261 0.135437 0.036011
0.414642 0.141876 0.039063
0.443604 0.147949 0.041473
0.472717 0.153931 0.044098
0.500946 0.159821 0.047516
0.529907 0.165436 0.050079
0.557098 0.169800 0.053009
0.584015 0.173584 0.056183
0.610596 0.177673 0.059174
0.637054 0.181610 0.061981
0.663116 0.185547 0.064941
0.689056 0.189301 0.067963
0.714478 0.193146 0.070831
0.739655 0.197083 0.073608
0.764404 0.201080 0.076508
0.788940 0.204834 0.079193
0.023285 0.159241 0.027863
0.028381 0.158875 0.027283
0.047455 0.156708 0.026642
0.080933 0.146179 0.027435
0.108063 0.135132 0.028931
0.128204 0.125977 0.029877
0.132233 0.110138 0.028137
0.145630 0.103668 0.028992
0.163544 0.103546 0.029541
0.184937 0.107361 0.029602
0.211884 0.113220 0.029449
0.239807 0.118927 0.029663
0.267609 0.124695 0.030609
0.295807 0.130402 0.032593
0.324219 0.136139 0.034546
0.352905 0.141693 0.036652
0.381622 0.148071 0.039063
0.410736 0.154297 0.041779
0.439850 0.160461 0.044342
0.469055 0.166779 0.047150
0.497467 0.173004 0.050568
0.526520 0.179047 0.053162
0.555542 0.184631 0.056030
0.583771 0.190552 0.059479
0.612579 0.196045 0.061981
0.640045 0.201721 0.065430
0.666504 0.205780 0.068390
0.692535 0.209991 0.071289
0.718140 0.213593 0.074219
0.743469 0.217804 0.077057
0.768463 0.221619 0.079956
0.793243 0.225525 0.082764
0.025330 0.187347 0.031464
0.030304 0.187073 0.030426
0.047607 0.185699 0.029968
0.081024 0.176727 0.029572
0.111145 0.165680 0.031006
0.134277 0.155060 0.032623
0.152222 0.147491 0.033478
0.153595 0.129883 0.031036
0.164764 0.121887 0.031677
0.182373 0.122009 0.032349
0.205933 0.123962 0.032776
0.234131 0.130585 0.032867
0.262329 0.136993 0.033691
0.290344 0.143341 0.035706
0.319244 0.149170 0.037659
0.347321 0.155365 0.040222
0.376831 0.161987 0.042511
0.405884 0.168610 0.045441
0.435089 0.175049 0.048309
0.464447 0.181427 0.051086
0.493408 0.187683 0.053802
0.522797 0.193726 0.056976
0.551941 0.199707 0.059601
0.580200 0.206024 0.063202
0.609253 0.211792 0.065887
0.637146 0.217712 0.069397
0.665802 0.223419 0.071808
0.693085 0.229340 0.075195
0.721100 0.234680 0.077606
0.747772 0.240662 0.080933
0.772919 0.244385 0.083832
0.797852 0.248260 0.086670
0.027130 0.215881 0.035706
0.032135 0.215698 0.033997
0.047302 0.215149 0.033813
0.078796 0.208527 0.031982
0.112274 0.196747 0.033203
0.138245 0.186035 0.035004
0.158844 0.176056 0.036591
0.175415 0.169952 0.036957
0.176208 0.152618 0.034119
0.183075 0.141357 0.034241
0.205261 0.141418 0.035583
0.228271 0.141418 0.036255
0.256775 0.148590 0.036560
0.285431 0.155426 0.038544
0.313660 0.162140 0.041107
0.342346 0.168518 0.043488
0.371979 0.175568 0.045990
0.401123 0.182465 0.049011
0.430878 0.189117 0.051422
0.460175 0.195770 0.054352
0.489471 0.202301 0.057343
0.518951 0.208740 0.060364
0.548218 0.214966 0.063202
0.576569 0.221161 0.066925
0.605743 0.226990 0.069641
0.634705 0.232941 0.072266
0.662689 0.239288 0.075867
0.691162 0.244843 0.078369
0.718445 0.250824 0.081818
0.745300 0.257080 0.085175
0.772766 0.262451 0.087494
0.799011 0.268646 0.090790
0.029327 0.244629 0.041290
0.034760 0.244690 0.038879
0.048737 0.244476 0.037842
0.075104 0.241058 0.036011
0.112183 0.228638 0.036011
0.140594 0.218079 0.037140
0.163635 0.207703 0.038910
0.182404 0.198486 0.040344
0.197754 0.193115 0.040588
0.199463 0.177551 0.037842
0.206696 0.161346 0.037476
0.229370 0.161285 0.039276
0.252228 0.160980 0.040070
0.279724 0.166992 0.041748
0.308105 0.174103 0.044525
0.337219 0.181152 0.046631
0.366852 0.188782 0.049377
0.396088 0.195953 0.052612
0.425964 0.202942 0.055237
0.455200 0.210052 0.058289
0.484650 0.216980 0.061249
0.514008 0.223572 0.064514
0.543488 0.229858 0.067566
0.572784 0.236084 0.070465
0.602112 0.242340 0.073303
0.631226 0.248596 0.076141
0.659363 0.254883 0.079681
0.687988 0.260620 0.082367
0.716400 0.266602 0.084839
0.743622 0.272949 0.088348
0.770386 0.278992 0.091766
0.797791 0.284607 0.094055
0.032898 0.273712 0.048035
0.038635 0.273804 0.045471
0.051453 0.273987 0.043732
0.072571 0.273376 0.043121
0.110901 0.261719 0.039795
0.141785 0.250061 0.040619
0.166870 0.240295 0.041443
0.187408 0.230652 0.042725
0.204620 0.221527 0.044189
0.219269 0.216980 0.044281
0.222656 0.197906 0.040863
0.230652 0.181854 0.040894
0.253510 0.181824 0.043396
0.276520 0.181732 0.045319
0.302979 0.185822 0.047302
0.331696 0.193390 0.050171
0.361786 0.201447 0.052765
0.391449 0.209045 0.055359
0.420746 0.216553 0.058777
0.450867 0.223816 0.061462
0.480438 0.231018 0.064575
0.509918 0.237946 0.067810
0.539429 0.244568 0.070862
0.568939 0.251038 0.073914
0.598358 0.257690 0.076965
0.627625 0.263947 0.079865
0.656799 0.270050 0.082764
0.684753 0.276672 0.086243
0.713348 0.282623 0.088928
0.741699 0.288696 0.091553
0.768677 0.295105 0.095032
0.796173 0.300690 0.097198
0.037811 0.303223 0.055847
0.043854 0.303406 0.053406
0.055359 0.303772 0.050751
0.073608 0.304352 0.051208
0.108856 0.294769 0.046936
0.142151 0.283417 0.045715
0.168793 0.272827 0.046234
0.191254 0.263397 0.046631
0.210144 0.254456 0.047302
0.226318 0.245880 0.048096
0.246643 0.241638 0.048279
0.246460 0.218414 0.044495
0.254913 0.202881 0.045013
0.277832 0.202942 0.048676
0.301331 0.202820 0.050934
0.326324 0.205139 0.053192
0.355988 0.213593 0.056274
0.385681 0.221771 0.059418
0.415619 0.229736 0.062286
0.445709 0.237488 0.065033
0.475311 0.244965 0.068481
0.505585 0.252258 0.071045
0.535248 0.259216 0.074219
0.564850 0.266022 0.077362
0.594543 0.272705 0.080505
0.623993 0.279266 0.083588
0.653198 0.285583 0.086426
0.682312 0.292114 0.089355
0.710236 0.298706 0.092865
0.738708 0.304840 0.095642
0.766846 0.310974 0.098053
0.793671 0.317291 0.101593
0.042847 0.332886 0.063538
0.049286 0.333191 0.061432
0.059662 0.334015 0.057800
0.077209 0.334808 0.058411
0.104187 0.329163 0.055420
0.142059 0.316254 0.052246
0.170471 0.306366 0.052002
0.194275 0.296661 0.052338
0.214539 0.287445 0.052704
0.232269 0.279327 0.052826
0.253876 0.269165 0.053467
0.274048 0.266815 0.053894
0.270630 0.239838 0.049316
0.279541 0.224518 0.050201
0.302826 0.224609 0.054352
0.326416 0.224579 0.057007
0.350708 0.225555 0.059540
0.380463 0.234100 0.062653
0.410339 0.242371 0.065704
0.440460 0.250580 0.068726
0.470764 0.258575 0.071533
0.500549 0.266296 0.074890
0.531036 0.273529 0.077576
0.560730 0.280487 0.080902
0.590393 0.287598 0.084106
0.620148 0.294586 0.087097
0.649506 0.301270 0.090118
0.678925 0.307861 0.093170
0.707886 0.314240 0.096008
0.735657 0.321106 0.099609
0.764008 0.327362 0.102264
0.791992 0.333374 0.104797
0.047791 0.362946 0.071014
0.054779 0.363464 0.069550
0.064301 0.364410 0.065552
0.081207 0.365448 0.065674
0.100281 0.364777 0.065216
0.140564 0.350952 0.058807
0.171143 0.339752 0.058716
0.196533 0.330292 0.058594
0.217896 0.321503 0.058777
0.237030 0.313049 0.058838
0.260193 0.302643 0.059662
0.281555 0.294891 0.060120
0.300049 0.290497 0.060272
0.294922 0.261475 0.055084
0.304535 0.246643 0.056183
0.328217 0.246826 0.060303
0.352478 0.247650 0.063293
0.376984 0.248352 0.065887
0.405670 0.255035 0.068604
0.435760 0.263611 0.071625
0.465424 0.271881 0.075165
0.495972 0.279877 0.077942
0.526550 0.287567 0.080811
0.556488 0.295105 0.084320
0.586273 0.302307 0.087555
0.616028 0.309540 0.090759
0.645752 0.316528 0.093933
0.675262 0.323486 0.096985
0.704437 0.330170 0.099915
0.733307 0.336853 0.102722
0.760895 0.343781 0.106262
0.789063 0.349945 0.108917
0.052612 0.393433 0.078613
0.060272 0.394012 0.077484
0.069641 0.395111 0.073792
0.085480 0.396606 0.072906
0.101654 0.397583 0.073547
0.136963 0.386230 0.067596
0.170868 0.374603 0.065155
0.197723 0.364746 0.065063
0.220551 0.355682 0.065155
0.240753 0.347076 0.065430
0.265686 0.337158 0.066010
0.288544 0.327179 0.066528
0.309845 0.321289 0.067139
0.324799 0.313171 0.066376
0.319763 0.284180 0.061218
0.330017 0.269562 0.062164
0.354431 0.270325 0.066467
0.378876 0.271149 0.069824
0.403320 0.272003 0.072296
0.430267 0.276062 0.074921
0.460754 0.285034 0.078156
0.491302 0.293396 0.081146
0.521149 0.301453 0.084747
0.552094 0.309265 0.087585
0.582062 0.316895 0.090973
0.612030 0.324341 0.094360
0.641876 0.331696 0.097595
0.671417 0.338867 0.100800
0.700714 0.345917 0.103821
0.730011 0.352783 0.106628
0.758698 0.359711 0.109558
0.787079 0.366302 0.112091
0.057556 0.424347 0.086273
0.065338 0.425049 0.085358
0.075104 0.426331 0.082397
0.090057 0.428223 0.080444
0.105865 0.429413 0.081238
0.131165 0.422821 0.078064
0.170135 0.409637 0.072449
0.198669 0.399353 0.071808
0.222717 0.390656 0.071594
0.244080 0.381927 0.071808
0.270203 0.371674 0.072418
0.294647 0.362183 0.072784
0.317200 0.352356 0.073486
0.338409 0.348328 0.073944
0.349945 0.336395 0.072418
0.345154 0.307373 0.067322
0.356476 0.293640 0.068542
0.380890 0.294373 0.072601
0.405426 0.295105 0.076324
0.430145 0.295868 0.078857
0.455109 0.297455 0.081543
0.485809 0.306427 0.084808
0.516602 0.314972 0.087860
0.546600 0.323151 0.091583
0.577637 0.331177 0.094360
0.607819 0.339111 0.097839
0.637726 0.346588 0.101196
0.667480 0.354095 0.104492
0.697052 0.361511 0.107605
0.726410 0.368866 0.110596
0.755280 0.375793 0.113434
0.783997 0.382965 0.116241
0.062622 0.455902 0.094177
0.070770 0.456909 0.093262
0.081390 0.458679 0.091003
0.095337 0.460785 0.088226
0.111237 0.462189 0.088928
0.127930 0.460510 0.089020
0.169464 0.445953 0.080658
0.200104 0.435760 0.078583
0.225189 0.426270 0.078552
0.247864 0.417999 0.078644
0.275238 0.407471 0.079132
0.300812 0.397980 0.079620
0.324890 0.388519 0.080078
0.346985 0.378479 0.080688
0.368439 0.376709 0.081299
0.376221 0.360901 0.078918
0.371643 0.331787 0.073761
0.382965 0.318115 0.074677
0.407593 0.318817 0.078888
0.432312 0.319489 0.082764
0.457001 0.320099 0.085632
0.481903 0.320801 0.088104
0.511871 0.328247 0.090973
0.541992 0.336700 0.094788
0.573181 0.345184 0.097748
0.603302 0.353485 0.101318
0.633423 0.361328 0.104797
0.664398 0.369202 0.107391
0.694183 0.376770 0.110535
0.723724 0.384338 0.113556
0.752930 0.391846 0.116516
0.780701 0.399414 0.120331
0.067535 0.487610 0.101898
0.076111 0.489075 0.101105
0.087555 0.491150 0.099426
0.100586 0.493805 0.096069
0.116455 0.495331 0.096771
0.131195 0.496307 0.097473
0.166809 0.483398 0.090332
0.200714 0.472351 0.085938
0.227081 0.462341 0.085785
0.251129 0.453918 0.085663
0.279694 0.444031 0.085938
0.306335 0.434296 0.086395
0.331604 0.424713 0.086945
0.355255 0.415314 0.087341
0.377106 0.407135 0.088043
0.398682 0.405701 0.088715
0.403076 0.385864 0.085541
0.398468 0.356689 0.080444
0.409912 0.342957 0.081146
0.434692 0.343567 0.085449
0.459412 0.344299 0.089355
0.484406 0.344910 0.092438
0.509186 0.345459 0.095062
0.537231 0.350189 0.097931
0.568481 0.359100 0.101166
0.598816 0.367706 0.104858
0.628998 0.376007 0.108398
0.660065 0.384369 0.111053
0.690155 0.392212 0.114227
0.719818 0.400146 0.117462
0.749237 0.407715 0.120453
0.778229 0.415314 0.123383
0.072357 0.519379 0.109924
0.081482 0.521118 0.109131
0.093323 0.523560 0.107697
0.105621 0.526611 0.103851
0.121643 0.528290 0.104736
0.136078 0.529907 0.105591
0.162445 0.521759 0.101563
0.200317 0.509216 0.093536
0.228210 0.499817 0.092712
0.253601 0.490295 0.092682
0.283325 0.481171 0.092651
0.311249 0.471283 0.093109
0.337555 0.461578 0.093628
0.362335 0.452087 0.094208
0.385864 0.442688 0.094757
0.407593 0.436554 0.095551
0.429413 0.435455 0.096283
0.430237 0.411621 0.092224
0.425720 0.382385 0.087158
0.437012 0.368286 0.087494
0.461945 0.368835 0.091766
0.486908 0.369476 0.095764
0.511932 0.369965 0.099396
0.536865 0.370422 0.101990
0.562683 0.372559 0.104980
0.594147 0.381805 0.108215
0.624512 0.390594 0.111816
0.655792 0.399231 0.114502
0.686035 0.407532 0.117981
0.715698 0.415405 0.121216
0.745392 0.423737 0.124420
0.774689 0.431427 0.127380
0.077423 0.551331 0.117981
0.086914 0.553284 0.117188
0.098755 0.556061 0.115936
0.110992 0.559509 0.112152
0.126740 0.561584 0.112671
0.141296 0.563385 0.113495
0.157623 0.561310 0.113586
0.198456 0.546051 0.103912
0.228882 0.536774 0.100037
0.255188 0.528046 0.099640
0.286438 0.517761 0.099915
0.315613 0.507813 0.100311
0.342834 0.498077 0.100922
0.368988 0.489502 0.101135
0.393341 0.480011 0.101837
0.416443 0.470490 0.102417
0.438477 0.466736 0.103088
0.460602 0.465759 0.103943
0.457886 0.438049 0.099091
0.453400 0.408630 0.094055
0.464447 0.394226 0.094086
0.489502 0.394684 0.098450
0.514740 0.395020 0.102509
0.539703 0.395508 0.106201
0.564789 0.396027 0.109100
0.589813 0.396393 0.111664
0.619720 0.404327 0.115112
0.651276 0.413635 0.118073
0.681549 0.422302 0.121613
0.711639 0.430878 0.124847
0.742462 0.439301 0.127350
0.772064 0.447510 0.130493
0.082184 0.583130 0.125793
0.092163 0.585571 0.125244
0.104401 0.588745 0.124054
0.116974 0.592346 0.121033
0.131744 0.594940 0.120514
0.146301 0.596954 0.121521
0.160797 0.596680 0.122589
0.193878 0.584656 0.114716
0.228668 0.573395 0.108521
0.256409 0.565308 0.107025
0.288971 0.554810 0.107086
0.319031 0.544708 0.107574
0.347595 0.535919 0.107788
0.374420 0.526306 0.108429
0.400452 0.517761 0.108795
0.424438 0.508240 0.109528
0.447418 0.498871 0.110107
0.469788 0.497498 0.110779
0.490631 0.494934 0.111237
0.485992 0.465057 0.106079
0.481567 0.435425 0.100983
0.492249 0.420349 0.100739
0.517395 0.420776 0.105255
0.542603 0.421082 0.109222
0.567871 0.421570 0.112885
0.593018 0.422089 0.116119
0.618011 0.422455 0.118683
0.646545 0.427887 0.121613
0.676941 0.436768 0.125031
0.707306 0.445984 0.128479
0.738312 0.454742 0.131042
0.768005 0.463348 0.134338
0.086914 0.615143 0.133575
0.097290 0.617859 0.133362
0.109802 0.621399 0.132172
0.122894 0.625366 0.129608
0.136627 0.628326 0.128326
0.151398 0.630554 0.129364
0.165039 0.632385 0.130249
0.187988 0.624603 0.126923
0.226471 0.611755 0.118073
0.256897 0.601990 0.114655
0.290924 0.592224 0.114319
0.322174 0.583099 0.114349
0.351776 0.573334 0.114960
0.379791 0.564636 0.115265
0.406464 0.555145 0.116119
0.431976 0.546570 0.116425
0.455963 0.537018 0.117188
0.479004 0.529480 0.117767
0.501648 0.528870 0.118591
0.519165 0.522675 0.118195
0.514679 0.492706 0.113159
0.510162 0.462860 0.108124
0.520355 0.447266 0.107452
0.545654 0.447418 0.111847
0.570953 0.447876 0.115875
0.596222 0.448273 0.119598
0.621429 0.448730 0.123169
0.646393 0.449127 0.125641
0.672241 0.451385 0.128479
0.703766 0.460846 0.131348
0.734039 0.470123 0.134857
0.763885 0.478943 0.138153
0.091583 0.647034 0.141449
0.102570 0.650208 0.141266
0.115204 0.653961 0.140320
0.128662 0.658173 0.138458
0.141418 0.661591 0.136200
0.156158 0.664154 0.137268
0.169678 0.666351 0.138184
0.184387 0.664642 0.139069
0.222076 0.650574 0.128571
0.256378 0.639893 0.122559
0.292206 0.630005 0.121521
0.324646 0.620819 0.121552
0.355469 0.611023 0.122070
0.384460 0.602295 0.122375
0.412201 0.593842 0.122925
0.438477 0.584351 0.123718
0.463959 0.575928 0.124207
0.488342 0.567413 0.124603
0.511078 0.561279 0.125549
0.533722 0.560852 0.126404
0.548218 0.551178 0.125214
0.543762 0.521088 0.120239
0.539185 0.491150 0.115295
0.548615 0.474548 0.114105
0.574097 0.474762 0.118469
0.599457 0.475037 0.122589
0.624695 0.475433 0.126312
0.649902 0.475800 0.129761
0.674774 0.476196 0.132690
0.699707 0.476685 0.135132
0.729523 0.485138 0.138397
0.760681 0.494751 0.141113
0.096069 0.678833 0.149078
0.107574 0.682343 0.149048
0.120514 0.686493 0.148102
0.134003 0.690887 0.146667
0.146088 0.694824 0.143890
0.160889 0.697510 0.144928
0.174622 0.699982 0.145874
0.188507 0.699402 0.147034
0.215759 0.688965 0.140381
0.254547 0.678406 0.132050
0.292664 0.667908 0.128693
0.326599 0.658691 0.128571
0.358337 0.648834 0.129150
0.388458 0.640289 0.129547
0.417175 0.631866 0.130035
0.444733 0.623596 0.130524
0.471344 0.615051 0.131012
0.496155 0.605621 0.131989
0.520355 0.597412 0.132568
0.543365 0.593719 0.133270
0.566223 0.593506 0.134125
0.577637 0.580414 0.132385
0.573303 0.550201 0.127319
0.568939 0.520172 0.122406
0.577240 0.502411 0.120728
0.602814 0.502686 0.125122
0.628235 0.502960 0.129242
0.653534 0.503479 0.132935
0.678558 0.503601 0.136444
0.703522 0.504089 0.139771
0.728149 0.504303 0.142242
0.756256 0.510132 0.144836
0.100555 0.710480 0.156769
0.112488 0.714355 0.156677
0.125732 0.718750 0.156219
0.139252 0.723480 0.154816
0.150909 0.727661 0.151825
0.165527 0.730652 0.152618
0.179138 0.733429 0.153687
0.192383 0.735199 0.154449
0.209961 0.730164 0.153625
0.251190 0.716064 0.142548
0.292114 0.706085 0.136261
0.327759 0.696869 0.135651
0.360901 0.686859 0.136200
0.392029 0.678375 0.136597
0.421631 0.670044 0.137115
0.450256 0.661804 0.137634
0.477631 0.653534 0.138245
0.504089 0.645264 0.138794
0.529266 0.637054 0.139374
0.552551 0.627625 0.140381
0.576080 0.626556 0.140991
0.599304 0.626556 0.141907
0.607483 0.610077 0.139435
0.603302 0.580017 0.134644
0.598938 0.549957 0.129761
0.606140 0.531097 0.127625
0.631683 0.531311 0.131744
0.657196 0.531403 0.135864
0.682434 0.531769 0.139526
0.707336 0.531952 0.143036
0.732147 0.532349 0.146454
0.756592 0.532593 0.149231
0.104858 0.741791 0.164276
0.117340 0.746185 0.164429
0.130920 0.750824 0.164032
0.144379 0.755737 0.162750
0.156464 0.760132 0.160309
0.169922 0.763641 0.160187
0.183777 0.766602 0.161255
0.196350 0.769348 0.162262
0.210480 0.767731 0.163177
0.245575 0.755341 0.153534
0.291107 0.743011 0.144928
0.328522 0.733551 0.143158
0.362793 0.724823 0.143127
0.395020 0.716553 0.143524
0.425568 0.708252 0.144012
0.455139 0.700165 0.144592
0.483459 0.692139 0.145233
0.510437 0.683990 0.145874
0.536896 0.675873 0.146545
0.562042 0.667755 0.147217
0.585785 0.659851 0.147797
0.609161 0.660004 0.148651
0.632477 0.660217 0.149567
0.637726 0.640472 0.146484
0.633575 0.610626 0.141815
0.629425 0.580566 0.137024
0.635162 0.560303 0.134674
0.660706 0.560364 0.138336
0.686127 0.560577 0.142395
0.711273 0.560791 0.145996
0.736176 0.561066 0.149597
0.760742 0.561401 0.152985
0.109039 0.772827 0.171753
0.122040 0.777527 0.171997
0.135864 0.782684 0.171753
0.149261 0.787567 0.170654
0.161774 0.792297 0.169006
0.174347 0.796112 0.167633
0.188080 0.799347 0.168823
0.200775 0.802277 0.169861
0.214355 0.801758 0.171051
0.237671 0.795319 0.166168
0.288300 0.781281 0.154419
0.328583 0.771240 0.150116
0.364136 0.762634 0.150024
0.397400 0.754517 0.150360
0.428925 0.746399 0.150818
0.459717 0.739777 0.150940
