pics/luts/ademolastudios Light SKin 2..CUBE
#Created by: Adobe Photoshop Export Color Lookup Plugin
#Copyright: (C) Copyright 2020 Ncourage Photography
TITLE "22"
#LUT size
LUT_3D_SIZE 8
#data domain
#LUT data points
DOMAIN_MIN 0.000000 0.000000 0.000000
DOMAIN_MAX 0.903226 0.903226 0.903226
0.000000 0.000000 0.000000
0.118591 0.019714 0.005920
0.258484 0.040131 0.011383
0.396271 0.060425 0.017517
0.529694 0.081085 0.023468
0.655304 0.103271 0.028992
0.771149 0.125183 0.034424
0.881134 0.147186 0.040039
0.004700 0.124725 0.004700
0.112091 0.095520 0.004456
0.221924 0.105896 0.009094
0.362061 0.119781 0.015137
0.501709 0.140167 0.021332
0.634064 0.167542 0.027222
0.757385 0.193359 0.032623
0.875183 0.218506 0.038513
0.008820 0.268066 0.008820
0.106140 0.221008 0.007507
0.183502 0.179291 0.006470
0.322174 0.191559 0.012299
0.469940 0.210052 0.018890
0.611176 0.235535 0.025146
0.743103 0.259735 0.030945
0.869263 0.283203 0.037109
0.013275 0.401855 0.013275
0.102386 0.363129 0.011932
0.176483 0.324677 0.010620
0.279327 0.288544 0.009369
0.434326 0.303528 0.015991
0.585175 0.325714 0.022675
0.726929 0.347382 0.028900
0.862488 0.368683 0.035370
0.017456 0.529388 0.017456
0.105316 0.497650 0.016388
0.176697 0.466400 0.015381
0.273346 0.433167 0.014313
0.399017 0.406677 0.013428
0.557831 0.424347 0.020081
0.709869 0.443481 0.026917
0.855316 0.462280 0.033478
0.021423 0.650452 0.021423
0.118225 0.627045 0.020660
0.186768 0.604431 0.019928
0.280518 0.579895 0.019104
0.398224 0.555328 0.018311
0.529846 0.535004 0.017639
0.691467 0.550690 0.024597
0.847565 0.566925 0.031555
0.025208 0.764954 0.025208
0.130341 0.749847 0.024689
0.196411 0.735687 0.024231
0.288086 0.720215 0.023712
0.404083 0.704498 0.023193
0.530762 0.688477 0.022705
0.671783 0.674316 0.022217
0.839050 0.687439 0.029449
0.028717 0.876984 0.028717
0.142517 0.870392 0.028503
0.205872 0.864410 0.028290
0.295471 0.857819 0.028137
0.409943 0.851074 0.027954
0.535767 0.844116 0.027771
0.674927 0.836975 0.027557
0.829498 0.829895 0.027344
0.005005 0.005005 0.134979
0.125214 0.004974 0.133881
0.268524 0.025360 0.121796
0.406555 0.046692 0.108978
0.539001 0.067657 0.107391
0.663147 0.088623 0.115082
0.777771 0.109314 0.121857
0.886505 0.130493 0.128479
0.004944 0.123993 0.132721
0.114929 0.114929 0.124542
0.257202 0.125793 0.106903
0.390411 0.136322 0.089630
0.521606 0.155609 0.085968
0.648285 0.182617 0.094116
0.766998 0.208130 0.102020
0.880920 0.232880 0.109802
0.008789 0.267242 0.125458
0.102081 0.261292 0.108002
0.212616 0.212524 0.080688
0.346893 0.219208 0.067719
0.486969 0.235046 0.064423
0.623291 0.259308 0.073456
0.751160 0.282471 0.082245
0.873840 0.305023 0.090790
0.013214 0.400757 0.118378
0.096558 0.395020 0.098297
0.202728 0.352112 0.070343
0.303162 0.312469 0.047241
0.450348 0.324249 0.045715
0.596588 0.345764 0.054993
0.734253 0.366699 0.064178
0.866425 0.387146 0.073425
0.017426 0.528137 0.121796
0.100037 0.523224 0.100037
0.202911 0.487854 0.070953
0.297272 0.452637 0.046326
0.414429 0.423309 0.031799
0.568542 0.440338 0.040161
0.716583 0.458801 0.049896
0.858643 0.477112 0.059448
0.021393 0.649475 0.134460
0.112274 0.646942 0.112274
0.213196 0.620972 0.084015
0.305359 0.595093 0.059418
0.415588 0.569275 0.040222
0.540283 0.547150 0.030640
0.697723 0.562073 0.039063
0.850525 0.577911 0.048462
0.025177 0.764313 0.146545
0.123932 0.764374 0.123932
0.223145 0.747650 0.096436
0.313202 0.730927 0.072510
0.421906 0.714081 0.052277
0.542084 0.697205 0.038849
0.677673 0.681946 0.030975
0.841614 0.694763 0.039398
0.028687 0.876648 0.158569
0.135529 0.879578 0.135529
0.232880 0.871826 0.108856
0.321075 0.864075 0.085480
0.428314 0.856323 0.064758
0.547638 0.848663 0.049652
0.681519 0.840881 0.039154
0.831940 0.833282 0.032227
0.009094 0.009094 0.278992
0.123383 0.009033 0.276825
0.270630 0.008972 0.274658
0.406403 0.028534 0.265625
0.537689 0.048828 0.265747
0.661255 0.069366 0.272797
0.775818 0.089630 0.279327
0.885132 0.110229 0.285370
0.008972 0.122223 0.274689
0.103485 0.103485 0.268890
0.262360 0.102386 0.266724
0.397980 0.118134 0.253296
0.530090 0.139069 0.250061
0.656555 0.166992 0.255554
0.774597 0.193268 0.260468
0.887390 0.218842 0.264893
0.008881 0.266296 0.270447
0.101349 0.260162 0.264587
0.250183 0.250183 0.255432
0.386993 0.258575 0.241119
0.518494 0.269073 0.231812
0.646667 0.289307 0.235107
0.767670 0.309631 0.239258
0.884338 0.330078 0.244049
0.013184 0.399719 0.263245
0.096222 0.393951 0.253113
0.233704 0.390320 0.235321
0.345215 0.350464 0.208954
0.482880 0.357391 0.207245
0.620789 0.375122 0.211304
0.751190 0.393036 0.216370
0.876953 0.411285 0.222046
0.017395 0.527008 0.264526
0.099518 0.522034 0.252197
0.229919 0.519623 0.229919
0.334381 0.485168 0.201721
0.447510 0.454163 0.176727
0.593384 0.467590 0.186310
0.733612 0.483185 0.193207
0.869080 0.499268 0.199799
0.021362 0.648468 0.273499
0.111755 0.645844 0.260468
0.237091 0.645233 0.237091
0.338348 0.619965 0.209991
0.446106 0.594330 0.183258
0.565094 0.570984 0.159241
0.714844 0.583191 0.168091
0.860626 0.596893 0.176849
0.025146 0.763672 0.281982
0.123413 0.763672 0.268433
0.244720 0.764984 0.244720
0.343506 0.748627 0.218658
0.449585 0.731934 0.192871
0.565186 0.714752 0.166779
0.694733 0.698578 0.142761
0.851410 0.709320 0.151764
0.028687 0.876312 0.290344
0.135101 0.879272 0.276642
0.252686 0.882751 0.252686
0.349274 0.875153 0.227722
0.453766 0.867340 0.202728
0.568848 0.859375 0.177429
0.697052 0.850952 0.151428
0.841187 0.842560 0.125916
0.013733 0.013733 0.416473
0.121887 0.013641 0.413605
0.270081 0.013580 0.410797
0.407043 0.013458 0.407898
0.537109 0.031586 0.408600
0.659882 0.051300 0.414673
0.774323 0.071198 0.420044
0.883820 0.091492 0.424957
0.013580 0.120789 0.410889
0.099945 0.099945 0.405212
0.257446 0.098938 0.402344
0.398529 0.097778 0.399475
0.529358 0.119995 0.397156
0.655151 0.148315 0.402161
0.772980 0.175049 0.406647
0.886108 0.200836 0.410675
0.013367 0.265656 0.405212
0.097870 0.255310 0.399567
0.237152 0.237152 0.396088
0.391968 0.234955 0.393127
0.523285 0.254211 0.385376
0.651550 0.277222 0.388397
0.772400 0.298950 0.391449
0.888672 0.320313 0.394501
0.013184 0.398590 0.399628
0.095795 0.392853 0.393921
0.232849 0.389130 0.390350
0.379303 0.379303 0.380737
0.512543 0.389618 0.375153
0.643555 0.404816 0.376099
0.767487 0.419403 0.376831
0.887360 0.434357 0.378265
0.017334 0.525818 0.399261
0.098969 0.520844 0.391083
0.229034 0.518341 0.381104
0.365875 0.515076 0.365875
0.479645 0.483521 0.343201
0.617340 0.494293 0.354370
0.750854 0.506958 0.355347
0.879913 0.519989 0.357361
0.021332 0.647430 0.405365
0.111237 0.644836 0.396454
0.236206 0.644226 0.383911
0.365784 0.643585 0.365784
0.473694 0.619202 0.342407
0.591248 0.595856 0.320343
0.733002 0.604034 0.330383
0.871887 0.615326 0.335693
0.025116 0.762909 0.411133
0.122986 0.763000 0.401703
0.243835 0.764313 0.387878
0.368164 0.765839 0.368164
0.473206 0.749908 0.345490
0.587128 0.733521 0.322571
0.713989 0.717560 0.300476
0.863129 0.724670 0.308899
0.028687 0.876007 0.416870
0.134705 0.878967 0.407043
0.251892 0.882385 0.392365
0.372040 0.885925 0.372040
0.474823 0.878632 0.350067
0.587494 0.871002 0.327759
0.712646 0.863007 0.304810
0.853241 0.854858 0.281860
0.018127 0.018127 0.550018
0.131226 0.018036 0.546783
0.277832 0.017944 0.543549
0.413666 0.017822 0.540314
0.537109 0.017700 0.537109
0.659088 0.035156 0.542328
0.773163 0.054291 0.546936
0.882782 0.074158 0.551392
0.017944 0.129517 0.543640
0.107147 0.107147 0.539001
0.262848 0.105652 0.535706
0.402374 0.104156 0.532440
0.529114 0.102722 0.529114
0.654205 0.131317 0.533508
0.771790 0.158142 0.537567
0.885040 0.184235 0.541168
0.017700 0.272827 0.537323
0.104187 0.260345 0.532532
0.238007 0.238007 0.530304
0.389404 0.235474 0.526978
0.523682 0.232941 0.523682
0.650757 0.259003 0.524628
0.771271 0.282013 0.527039
0.887604 0.304077 0.529510
0.017517 0.404419 0.530975
0.101379 0.396179 0.526123
0.233032 0.386292 0.523773
0.371094 0.371094 0.520447
0.517059 0.367828 0.517059
0.646515 0.390808 0.515625
0.770233 0.408844 0.517212
0.889954 0.425842 0.518982
0.017273 0.524567 0.524567
0.098419 0.519592 0.519592
0.228149 0.517181 0.517181
0.364655 0.513794 0.513794
0.512543 0.512543 0.512543
0.643799 0.526581 0.515747
0.769348 0.537964 0.516357
0.891113 0.548553 0.515900
0.021301 0.646484 0.528992
0.110748 0.643829 0.523193
0.235352 0.643188 0.517212
0.364594 0.642517 0.509186
0.505463 0.645477 0.505463
0.619415 0.622009 0.486298
0.751831 0.629150 0.496674
0.883423 0.638062 0.496399
0.025085 0.762238 0.532928
0.122467 0.762268 0.526886
0.243011 0.763580 0.518860
0.367065 0.765076 0.508209
0.501526 0.769104 0.501526
0.611481 0.753235 0.481598
0.734833 0.737518 0.462311
0.875122 0.741760 0.472046
0.028656 0.875702 0.537170
0.134247 0.878662 0.530579
0.251099 0.882050 0.521362
0.370972 0.885590 0.509155
0.500214 0.890259 0.500214
0.608154 0.882935 0.480682
0.729431 0.875397 0.460846
0.866180 0.867645 0.440979
0.022156 0.022156 0.672211
0.145935 0.022064 0.669495
0.290344 0.021973 0.666840
0.424347 0.021881 0.664093
0.546143 0.021790 0.661377
0.658661 0.021698 0.658661
0.772369 0.038849 0.663177
0.881897 0.058014 0.667389
0.021973 0.144409 0.666931
0.121185 0.121185 0.664642
0.274750 0.119720 0.661896
0.412445 0.118408 0.659119
0.537537 0.116974 0.656342
0.653595 0.115601 0.653595
0.770874 0.142517 0.657532
0.884186 0.168671 0.661163
0.021790 0.285553 0.661560
0.118469 0.272369 0.659210
0.248627 0.248627 0.658875
0.396881 0.246246 0.656006
0.528625 0.243805 0.653198
0.650360 0.241425 0.650360
0.770386 0.265808 0.651886
0.886841 0.288574 0.654175
0.021637 0.415314 0.656189
0.115692 0.406433 0.653748
0.243896 0.393921 0.653290
0.375916 0.375916 0.652802
0.517578 0.372742 0.649933
0.647034 0.369598 0.647034
0.769714 0.391632 0.645874
0.889252 0.410461 0.647003
0.021423 0.534058 0.650787
0.112976 0.528351 0.648315
0.239166 0.522430 0.647736
0.369690 0.514404 0.647156
0.511871 0.511871 0.650757
0.647522 0.507843 0.647522
0.771454 0.526062 0.645569
0.892792 0.540161 0.646698
0.021240 0.645477 0.645477
0.110199 0.642822 0.642822
0.234467 0.642151 0.642151
0.363434 0.641449 0.641449
0.504028 0.644287 0.644287
0.655121 0.655121 0.655121
0.777954 0.665985 0.658386
0.897980 0.675049 0.659790
0.025055 0.761536 0.648865
0.121948 0.761536 0.645752
0.242188 0.762848 0.642578
0.365997 0.764343 0.638397
0.500092 0.768250 0.637573
0.649750 0.779266 0.649750
0.763306 0.764679 0.635742
0.890442 0.769806 0.645264
0.028656 0.875427 0.652374
0.133820 0.878296 0.648926
0.250275 0.881714 0.644226
0.369934 0.885284 0.637878
0.498901 0.889862 0.634186
0.645538 0.898102 0.645538
0.756836 0.891418 0.630981
0.883392 0.884369 0.616028
0.025787 0.025787 0.782867
0.159393 0.025726 0.781006
0.302063 0.025696 0.779175
0.434052 0.025604 0.777283
0.554535 0.025543 0.775421
0.665833 0.025482 0.773529
0.771698 0.025421 0.771698
0.881073 0.042847 0.776093
0.025665 0.158142 0.779236
0.134186 0.134186 0.779816
0.285889 0.132935 0.777832
0.421936 0.131622 0.775909
0.545624 0.130341 0.773987
0.660339 0.129028 0.772064
0.770172 0.127716 0.770172
0.883392 0.153931 0.774078
0.025543 0.297363 0.775543
0.131653 0.283539 0.775970
0.259277 0.259277 0.777710
0.404999 0.256958 0.775726
0.534790 0.254761 0.773743
0.654907 0.252441 0.771759
0.769775 0.250122 0.769775
0.886108 0.273651 0.772003
0.025421 0.425415 0.771881
0.129120 0.416107 0.772186
0.254791 0.402130 0.773804
0.382843 0.382843 0.775543
0.521271 0.379730 0.773468
0.648254 0.376709 0.771484
0.769470 0.373657 0.769470
0.888702 0.394806 0.769257
0.025299 0.542694 0.768219
0.126617 0.536652 0.768402
0.250275 0.528778 0.769897
0.376801 0.518372 0.771545
0.513885 0.513885 0.776398
0.645874 0.509979 0.774139
0.771851 0.506134 0.771851
0.892426 0.524475 0.769928
0.025177 0.653046 0.764526
0.124084 0.650055 0.764618
0.245789 0.646973 0.765991
0.370819 0.642914 0.767578
0.506287 0.642700 0.771942
0.654755 0.654755 0.782684
0.780548 0.651703 0.780548
0.899017 0.665253 0.779266
0.025024 0.760834 0.760834
0.121521 0.760864 0.760864
0.241333 0.762146 0.762146
0.364899 0.763611 0.763611
0.498657 0.767395 0.767395
0.648621 0.778473 0.778473
0.786011 0.786011 0.786011
0.904144 0.794342 0.789581
0.028625 0.875122 0.764343
0.133362 0.877991 0.763977
0.249573 0.881348 0.763458
0.368866 0.884918 0.762329
0.497437 0.889435 0.762878
0.644348 0.897736 0.772705
0.783417 0.904846 0.783417
0.898163 0.898590 0.774536
0.029022 0.029022 0.886169
0.172150 0.028992 0.885315
0.312836 0.028992 0.884552
0.443390 0.028961 0.883728
0.562500 0.028931 0.882904
0.672607 0.028900 0.882050
0.777557 0.028870 0.881226
0.880432 0.028809 0.880432
0.028961 0.170959 0.884583
0.146515 0.146515 0.887970
0.296448 0.145416 0.887115
0.430878 0.144226 0.886230
0.553467 0.143127 0.885345
0.667053 0.141937 0.884491
0.775757 0.140778 0.883575
0.882690 0.139587 0.882690
0.028900 0.308563 0.882965
0.144257 0.294281 0.886261
0.269745 0.269745 0.890106
0.413422 0.267578 0.889221
0.541473 0.265503 0.888275
0.660004 0.263336 0.887299
0.773834 0.261230 0.886414
0.885498 0.259064 0.885498
0.028870 0.435120 0.881317
0.141998 0.425354 0.884521
0.265564 0.410553 0.888306
0.390564 0.390564 0.892090
0.526703 0.387634 0.891113
0.651520 0.384735 0.890106
0.770844 0.381897 0.889160
0.888245 0.378998 0.888245
0.028809 0.551147 0.879700
0.139709 0.544769 0.882782
0.261322 0.535645 0.886475
0.384857 0.523651 0.890137
0.518066 0.518066 0.895416
0.647247 0.514404 0.894379
0.770721 0.510681 0.893280
0.892212 0.506866 0.892212
0.028717 0.660309 0.878082
0.137512 0.657013 0.881073
0.257111 0.652435 0.884674
0.379150 0.646332 0.888306
0.510834 0.644226 0.893311
0.655457 0.655457 0.901306
0.778320 0.652313 0.900360
0.899292 0.649261 0.899292
0.028687 0.767151 0.876434
0.135223 0.766876 0.879395
0.252960 0.766388 0.882874
0.373444 0.765320 0.886444
0.503479 0.766449 0.891174
0.649353 0.776245 0.899323
0.786713 0.786713 0.906311
0.905396 0.784637 0.905396
0.028625 0.874817 0.874817
0.132965 0.877625 0.877625
0.248779 0.881042 0.881042
0.367828 0.884521 0.884521
0.496063 0.889038 0.889038
0.643250 0.897339 0.897339
0.782715 0.904541 0.904541
0.910187 0.910187 0.910187
